(Generated by PartKam Version 0.05)

G20 G90 G40

(Cut Alignment Holes)
G0 Z0.15
T0 M6
G17
M3
G0 X9.4278 Y15.5706
G1 Z-0.12 F30
G3 X9.4178 Y15.6207 I-0.1309 J0 F20
G3 X9.3895 Y15.6631 I-0.1209 J-0.0501
G3 X9.347 Y15.6915 I-0.0926 J-0.0926
G3 X9.2969 Y15.7015 I-0.0501 J-0.1209
G3 X9.2468 Y15.6915 I0 J-0.1309
G3 X9.2043 Y15.6631 I0.0501 J-0.1209
G3 X9.176 Y15.6207 I0.0926 J-0.0926
G3 X9.166 Y15.5706 I0.1209 J-0.0501
G3 X9.176 Y15.5205 I0.1309 J0
G3 X9.2043 Y15.478 I0.1209 J0.0501
G3 X9.2468 Y15.4496 I0.0926 J0.0926
G3 X9.2969 Y15.4397 I0.0501 J0.1209
G3 X9.347 Y15.4496 I0 J0.1309
G3 X9.3895 Y15.478 I-0.0501 J0.1209
G3 X9.4178 Y15.5205 I-0.0926 J0.0926
G3 X9.4278 Y15.5706 I-0.1209 J0.0501
G1 Z-0.24 F30
G3 X9.4178 Y15.6207 I-0.1309 J0 F20
G3 X9.3895 Y15.6631 I-0.1209 J-0.0501
G3 X9.347 Y15.6915 I-0.0926 J-0.0926
G3 X9.2969 Y15.7015 I-0.0501 J-0.1209
G3 X9.2468 Y15.6915 I0 J-0.1309
G3 X9.2043 Y15.6631 I0.0501 J-0.1209
G3 X9.176 Y15.6207 I0.0926 J-0.0926
G3 X9.166 Y15.5706 I0.1209 J-0.0501
G3 X9.176 Y15.5205 I0.1309 J0
G3 X9.2043 Y15.478 I0.1209 J0.0501
G3 X9.2468 Y15.4496 I0.0926 J0.0926
G3 X9.2969 Y15.4397 I0.0501 J0.1209
G3 X9.347 Y15.4496 I0 J0.1309
G3 X9.3895 Y15.478 I-0.0501 J0.1209
G3 X9.4178 Y15.5205 I-0.0926 J0.0926
G3 X9.4278 Y15.5706 I-0.1209 J0.0501
G1 Z-0.36 F30
G3 X9.4178 Y15.6207 I-0.1309 J0 F20
G3 X9.3895 Y15.6631 I-0.1209 J-0.0501
G3 X9.347 Y15.6915 I-0.0926 J-0.0926
G3 X9.2969 Y15.7015 I-0.0501 J-0.1209
G3 X9.2468 Y15.6915 I0 J-0.1309
G3 X9.2043 Y15.6631 I0.0501 J-0.1209
G3 X9.176 Y15.6207 I0.0926 J-0.0926
G3 X9.166 Y15.5706 I0.1209 J-0.0501
G3 X9.176 Y15.5205 I0.1309 J0
G3 X9.2043 Y15.478 I0.1209 J0.0501
G3 X9.2468 Y15.4496 I0.0926 J0.0926
G3 X9.2969 Y15.4397 I0.0501 J0.1209
G3 X9.347 Y15.4496 I0 J0.1309
G3 X9.3895 Y15.478 I-0.0501 J0.1209
G3 X9.4178 Y15.5205 I-0.0926 J0.0926
G3 X9.4278 Y15.5706 I-0.1209 J0.0501
G1 Z-0.48 F30
G3 X9.4178 Y15.6207 I-0.1309 J0 F20
G3 X9.3895 Y15.6631 I-0.1209 J-0.0501
G3 X9.347 Y15.6915 I-0.0926 J-0.0926
G3 X9.2969 Y15.7015 I-0.0501 J-0.1209
G3 X9.2468 Y15.6915 I0 J-0.1309
G3 X9.2043 Y15.6631 I0.0501 J-0.1209
G3 X9.176 Y15.6207 I0.0926 J-0.0926
G3 X9.166 Y15.5706 I0.1209 J-0.0501
G3 X9.176 Y15.5205 I0.1309 J0
G3 X9.2043 Y15.478 I0.1209 J0.0501
G3 X9.2468 Y15.4496 I0.0926 J0.0926
G3 X9.2969 Y15.4397 I0.0501 J0.1209
G3 X9.347 Y15.4496 I0 J0.1309
G3 X9.3895 Y15.478 I-0.0501 J0.1209
G3 X9.4178 Y15.5205 I-0.0926 J0.0926
G3 X9.4278 Y15.5706 I-0.1209 J0.0501
G1 Z-0.6 F30
G3 X9.4178 Y15.6207 I-0.1309 J0 F20
G3 X9.3895 Y15.6631 I-0.1209 J-0.0501
G3 X9.347 Y15.6915 I-0.0926 J-0.0926
G3 X9.2969 Y15.7015 I-0.0501 J-0.1209
G3 X9.2468 Y15.6915 I0 J-0.1309
G3 X9.2043 Y15.6631 I0.0501 J-0.1209
G3 X9.176 Y15.6207 I0.0926 J-0.0926
G3 X9.166 Y15.5706 I0.1209 J-0.0501
G3 X9.176 Y15.5205 I0.1309 J0
G3 X9.2043 Y15.478 I0.1209 J0.0501
G3 X9.2468 Y15.4496 I0.0926 J0.0926
G3 X9.2969 Y15.4397 I0.0501 J0.1209
G3 X9.347 Y15.4496 I0 J0.1309
G3 X9.3895 Y15.478 I-0.0501 J0.1209
G3 X9.4178 Y15.5205 I-0.0926 J0.0926
G3 X9.4278 Y15.5706 I-0.1209 J0.0501
G1 Z-0.72 F30
G3 X9.4178 Y15.6207 I-0.1309 J0 F20
G3 X9.3895 Y15.6631 I-0.1209 J-0.0501
G3 X9.347 Y15.6915 I-0.0926 J-0.0926
G3 X9.2969 Y15.7015 I-0.0501 J-0.1209
G3 X9.2468 Y15.6915 I0 J-0.1309
G3 X9.2043 Y15.6631 I0.0501 J-0.1209
G3 X9.176 Y15.6207 I0.0926 J-0.0926
G3 X9.166 Y15.5706 I0.1209 J-0.0501
G3 X9.176 Y15.5205 I0.1309 J0
G3 X9.2043 Y15.478 I0.1209 J0.0501
G3 X9.2468 Y15.4496 I0.0926 J0.0926
G3 X9.2969 Y15.4397 I0.0501 J0.1209
G3 X9.347 Y15.4496 I0 J0.1309
G3 X9.3895 Y15.478 I-0.0501 J0.1209
G3 X9.4178 Y15.5205 I-0.0926 J0.0926
G3 X9.4278 Y15.5706 I-0.1209 J0.0501
G1 Z-0.8 F30
G3 X9.4178 Y15.6207 I-0.1309 J0 F20
G3 X9.3895 Y15.6631 I-0.1209 J-0.0501
G3 X9.347 Y15.6915 I-0.0926 J-0.0926
G3 X9.2969 Y15.7015 I-0.0501 J-0.1209
G3 X9.2468 Y15.6915 I0 J-0.1309
G3 X9.2043 Y15.6631 I0.0501 J-0.1209
G3 X9.176 Y15.6207 I0.0926 J-0.0926
G3 X9.166 Y15.5706 I0.1209 J-0.0501
G3 X9.176 Y15.5205 I0.1309 J0
G3 X9.2043 Y15.478 I0.1209 J0.0501
G3 X9.2468 Y15.4496 I0.0926 J0.0926
G3 X9.2969 Y15.4397 I0.0501 J0.1209
G3 X9.347 Y15.4496 I0 J0.1309
G3 X9.3895 Y15.478 I-0.0501 J0.1209
G3 X9.4178 Y15.5205 I-0.0926 J0.0926
G3 X9.4278 Y15.5706 I-0.1209 J0.0501
G0 Z0.15
G0 X14.9361 Y6.9108
G1 Z-0.12 F30
G3 X14.9547 Y6.8744 I0.1245 J0.0405 F20
G3 X14.9837 Y6.8454 I0.1059 J0.0769
G3 X15.0202 Y6.8268 I0.0769 J0.1059
G3 X15.0606 Y6.8204 I0.0405 J0.1245
G3 X15.1011 Y6.8268 I0 J0.1309
G3 X15.1376 Y6.8454 I-0.0405 J0.1245
G3 X15.1665 Y6.8744 I-0.0769 J0.1059
G3 X15.1851 Y6.9108 I-0.1059 J0.0769
G3 X15.1915 Y6.9513 I-0.1245 J0.0405
G1 X15.1915 Y6.9513
G1 X15.1915 Y6.9513
G3 X15.1851 Y6.9918 I-0.1309 J0
G3 X15.1665 Y7.0282 I-0.1245 J-0.0405
G3 X15.1376 Y7.0572 I-0.1059 J-0.0769
G3 X15.1011 Y7.0758 I-0.0769 J-0.1059
G3 X15.0606 Y7.0822 I-0.0405 J-0.1245
G3 X15.0202 Y7.0758 I0 J-0.1309
G3 X14.9837 Y7.0572 I0.0405 J-0.1245
G3 X14.9547 Y7.0282 I0.0769 J-0.1059
G3 X14.9361 Y6.9918 I0.1059 J-0.0769
G3 X14.9297 Y6.9513 I0.1245 J-0.0405
G1 X14.9297 Y6.9513
G1 X14.9297 Y6.9513
G3 X14.9361 Y6.9108 I0.1309 J0
G1 Z-0.24 F30
G3 X14.9547 Y6.8744 I0.1245 J0.0405 F20
G3 X14.9837 Y6.8454 I0.1059 J0.0769
G3 X15.0202 Y6.8268 I0.0769 J0.1059
G3 X15.0606 Y6.8204 I0.0405 J0.1245
G3 X15.1011 Y6.8268 I0 J0.1309
G3 X15.1376 Y6.8454 I-0.0405 J0.1245
G3 X15.1665 Y6.8744 I-0.0769 J0.1059
G3 X15.1851 Y6.9108 I-0.1059 J0.0769
G3 X15.1915 Y6.9513 I-0.1245 J0.0405
G1 X15.1915 Y6.9513
G1 X15.1915 Y6.9513
G3 X15.1851 Y6.9918 I-0.1309 J0
G3 X15.1665 Y7.0282 I-0.1245 J-0.0405
G3 X15.1376 Y7.0572 I-0.1059 J-0.0769
G3 X15.1011 Y7.0758 I-0.0769 J-0.1059
G3 X15.0606 Y7.0822 I-0.0405 J-0.1245
G3 X15.0202 Y7.0758 I0 J-0.1309
G3 X14.9837 Y7.0572 I0.0405 J-0.1245
G3 X14.9547 Y7.0282 I0.0769 J-0.1059
G3 X14.9361 Y6.9918 I0.1059 J-0.0769
G3 X14.9297 Y6.9513 I0.1245 J-0.0405
G1 X14.9297 Y6.9513
G1 X14.9297 Y6.9513
G3 X14.9361 Y6.9108 I0.1309 J0
G1 Z-0.36 F30
G3 X14.9547 Y6.8744 I0.1245 J0.0405 F20
G3 X14.9837 Y6.8454 I0.1059 J0.0769
G3 X15.0202 Y6.8268 I0.0769 J0.1059
G3 X15.0606 Y6.8204 I0.0405 J0.1245
G3 X15.1011 Y6.8268 I0 J0.1309
G3 X15.1376 Y6.8454 I-0.0405 J0.1245
G3 X15.1665 Y6.8744 I-0.0769 J0.1059
G3 X15.1851 Y6.9108 I-0.1059 J0.0769
G3 X15.1915 Y6.9513 I-0.1245 J0.0405
G1 X15.1915 Y6.9513
G1 X15.1915 Y6.9513
G3 X15.1851 Y6.9918 I-0.1309 J0
G3 X15.1665 Y7.0282 I-0.1245 J-0.0405
G3 X15.1376 Y7.0572 I-0.1059 J-0.0769
G3 X15.1011 Y7.0758 I-0.0769 J-0.1059
G3 X15.0606 Y7.0822 I-0.0405 J-0.1245
G3 X15.0202 Y7.0758 I0 J-0.1309
G3 X14.9837 Y7.0572 I0.0405 J-0.1245
G3 X14.9547 Y7.0282 I0.0769 J-0.1059
G3 X14.9361 Y6.9918 I0.1059 J-0.0769
G3 X14.9297 Y6.9513 I0.1245 J-0.0405
G1 X14.9297 Y6.9513
G1 X14.9297 Y6.9513
G3 X14.9361 Y6.9108 I0.1309 J0
G1 Z-0.48 F30
G3 X14.9547 Y6.8744 I0.1245 J0.0405 F20
G3 X14.9837 Y6.8454 I0.1059 J0.0769
G3 X15.0202 Y6.8268 I0.0769 J0.1059
G3 X15.0606 Y6.8204 I0.0405 J0.1245
G3 X15.1011 Y6.8268 I0 J0.1309
G3 X15.1376 Y6.8454 I-0.0405 J0.1245
G3 X15.1665 Y6.8744 I-0.0769 J0.1059
G3 X15.1851 Y6.9108 I-0.1059 J0.0769
G3 X15.1915 Y6.9513 I-0.1245 J0.0405
G1 X15.1915 Y6.9513
G1 X15.1915 Y6.9513
G3 X15.1851 Y6.9918 I-0.1309 J0
G3 X15.1665 Y7.0282 I-0.1245 J-0.0405
G3 X15.1376 Y7.0572 I-0.1059 J-0.0769
G3 X15.1011 Y7.0758 I-0.0769 J-0.1059
G3 X15.0606 Y7.0822 I-0.0405 J-0.1245
G3 X15.0202 Y7.0758 I0 J-0.1309
G3 X14.9837 Y7.0572 I0.0405 J-0.1245
G3 X14.9547 Y7.0282 I0.0769 J-0.1059
G3 X14.9361 Y6.9918 I0.1059 J-0.0769
G3 X14.9297 Y6.9513 I0.1245 J-0.0405
G1 X14.9297 Y6.9513
G1 X14.9297 Y6.9513
G3 X14.9361 Y6.9108 I0.1309 J0
G1 Z-0.6 F30
G3 X14.9547 Y6.8744 I0.1245 J0.0405 F20
G3 X14.9837 Y6.8454 I0.1059 J0.0769
G3 X15.0202 Y6.8268 I0.0769 J0.1059
G3 X15.0606 Y6.8204 I0.0405 J0.1245
G3 X15.1011 Y6.8268 I0 J0.1309
G3 X15.1376 Y6.8454 I-0.0405 J0.1245
G3 X15.1665 Y6.8744 I-0.0769 J0.1059
G3 X15.1851 Y6.9108 I-0.1059 J0.0769
G3 X15.1915 Y6.9513 I-0.1245 J0.0405
G1 X15.1915 Y6.9513
G1 X15.1915 Y6.9513
G3 X15.1851 Y6.9918 I-0.1309 J0
G3 X15.1665 Y7.0282 I-0.1245 J-0.0405
G3 X15.1376 Y7.0572 I-0.1059 J-0.0769
G3 X15.1011 Y7.0758 I-0.0769 J-0.1059
G3 X15.0606 Y7.0822 I-0.0405 J-0.1245
G3 X15.0202 Y7.0758 I0 J-0.1309
G3 X14.9837 Y7.0572 I0.0405 J-0.1245
G3 X14.9547 Y7.0282 I0.0769 J-0.1059
G3 X14.9361 Y6.9918 I0.1059 J-0.0769
G3 X14.9297 Y6.9513 I0.1245 J-0.0405
G1 X14.9297 Y6.9513
G1 X14.9297 Y6.9513
G3 X14.9361 Y6.9108 I0.1309 J0
G1 Z-0.72 F30
G3 X14.9547 Y6.8744 I0.1245 J0.0405 F20
G3 X14.9837 Y6.8454 I0.1059 J0.0769
G3 X15.0202 Y6.8268 I0.0769 J0.1059
G3 X15.0606 Y6.8204 I0.0405 J0.1245
G3 X15.1011 Y6.8268 I0 J0.1309
G3 X15.1376 Y6.8454 I-0.0405 J0.1245
G3 X15.1665 Y6.8744 I-0.0769 J0.1059
G3 X15.1851 Y6.9108 I-0.1059 J0.0769
G3 X15.1915 Y6.9513 I-0.1245 J0.0405
G1 X15.1915 Y6.9513
G1 X15.1915 Y6.9513
G3 X15.1851 Y6.9918 I-0.1309 J0
G3 X15.1665 Y7.0282 I-0.1245 J-0.0405
G3 X15.1376 Y7.0572 I-0.1059 J-0.0769
G3 X15.1011 Y7.0758 I-0.0769 J-0.1059
G3 X15.0606 Y7.0822 I-0.0405 J-0.1245
G3 X15.0202 Y7.0758 I0 J-0.1309
G3 X14.9837 Y7.0572 I0.0405 J-0.1245
G3 X14.9547 Y7.0282 I0.0769 J-0.1059
G3 X14.9361 Y6.9918 I0.1059 J-0.0769
G3 X14.9297 Y6.9513 I0.1245 J-0.0405
G1 X14.9297 Y6.9513
G1 X14.9297 Y6.9513
G3 X14.9361 Y6.9108 I0.1309 J0
G1 Z-0.8 F30
G3 X14.9547 Y6.8744 I0.1245 J0.0405 F20
G3 X14.9837 Y6.8454 I0.1059 J0.0769
G3 X15.0202 Y6.8268 I0.0769 J0.1059
G3 X15.0606 Y6.8204 I0.0405 J0.1245
G3 X15.1011 Y6.8268 I0 J0.1309
G3 X15.1376 Y6.8454 I-0.0405 J0.1245
G3 X15.1665 Y6.8744 I-0.0769 J0.1059
G3 X15.1851 Y6.9108 I-0.1059 J0.0769
G3 X15.1915 Y6.9513 I-0.1245 J0.0405
G1 X15.1915 Y6.9513
G1 X15.1915 Y6.9513
G3 X15.1851 Y6.9918 I-0.1309 J0
G3 X15.1665 Y7.0282 I-0.1245 J-0.0405
G3 X15.1376 Y7.0572 I-0.1059 J-0.0769
G3 X15.1011 Y7.0758 I-0.0769 J-0.1059
G3 X15.0606 Y7.0822 I-0.0405 J-0.1245
G3 X15.0202 Y7.0758 I0 J-0.1309
G3 X14.9837 Y7.0572 I0.0405 J-0.1245
G3 X14.9547 Y7.0282 I0.0769 J-0.1059
G3 X14.9361 Y6.9918 I0.1059 J-0.0769
G3 X14.9297 Y6.9513 I0.1245 J-0.0405
G1 X14.9297 Y6.9513
G1 X14.9297 Y6.9513
G3 X14.9361 Y6.9108 I0.1309 J0
G0 Z0.15
G0 X3.4087 Y6.9108
G1 Z-0.12 F30
G3 X3.4273 Y6.8744 I0.1245 J0.0405 F20
G3 X3.4562 Y6.8454 I0.1059 J0.0769
G3 X3.4927 Y6.8268 I0.0769 J0.1059
G3 X3.5332 Y6.8204 I0.0405 J0.1245
G3 X3.5736 Y6.8268 I0 J0.1309
G3 X3.6101 Y6.8454 I-0.0405 J0.1245
G3 X3.6391 Y6.8744 I-0.0769 J0.1059
G3 X3.6577 Y6.9108 I-0.1059 J0.0769
G3 X3.6641 Y6.9513 I-0.1245 J0.0405
G1 X3.6641 Y6.9513
G1 X3.6641 Y6.9513
G3 X3.6577 Y6.9918 I-0.1309 J0
G3 X3.6391 Y7.0282 I-0.1245 J-0.0405
G3 X3.6101 Y7.0572 I-0.1059 J-0.0769
G3 X3.5736 Y7.0758 I-0.0769 J-0.1059
G3 X3.5332 Y7.0822 I-0.0405 J-0.1245
G3 X3.4927 Y7.0758 I0 J-0.1309
G3 X3.4562 Y7.0572 I0.0405 J-0.1245
G3 X3.4273 Y7.0282 I0.0769 J-0.1059
G3 X3.4087 Y6.9918 I0.1059 J-0.0769
G3 X3.4023 Y6.9513 I0.1245 J-0.0405
G1 X3.4023 Y6.9513
G1 X3.4023 Y6.9513
G3 X3.4087 Y6.9108 I0.1309 J0
G1 Z-0.24 F30
G3 X3.4273 Y6.8744 I0.1245 J0.0405 F20
G3 X3.4562 Y6.8454 I0.1059 J0.0769
G3 X3.4927 Y6.8268 I0.0769 J0.1059
G3 X3.5332 Y6.8204 I0.0405 J0.1245
G3 X3.5736 Y6.8268 I0 J0.1309
G3 X3.6101 Y6.8454 I-0.0405 J0.1245
G3 X3.6391 Y6.8744 I-0.0769 J0.1059
G3 X3.6577 Y6.9108 I-0.1059 J0.0769
G3 X3.6641 Y6.9513 I-0.1245 J0.0405
G1 X3.6641 Y6.9513
G1 X3.6641 Y6.9513
G3 X3.6577 Y6.9918 I-0.1309 J0
G3 X3.6391 Y7.0282 I-0.1245 J-0.0405
G3 X3.6101 Y7.0572 I-0.1059 J-0.0769
G3 X3.5736 Y7.0758 I-0.0769 J-0.1059
G3 X3.5332 Y7.0822 I-0.0405 J-0.1245
G3 X3.4927 Y7.0758 I0 J-0.1309
G3 X3.4562 Y7.0572 I0.0405 J-0.1245
G3 X3.4273 Y7.0282 I0.0769 J-0.1059
G3 X3.4087 Y6.9918 I0.1059 J-0.0769
G3 X3.4023 Y6.9513 I0.1245 J-0.0405
G1 X3.4023 Y6.9513
G1 X3.4023 Y6.9513
G3 X3.4087 Y6.9108 I0.1309 J0
G1 Z-0.36 F30
G3 X3.4273 Y6.8744 I0.1245 J0.0405 F20
G3 X3.4562 Y6.8454 I0.1059 J0.0769
G3 X3.4927 Y6.8268 I0.0769 J0.1059
G3 X3.5332 Y6.8204 I0.0405 J0.1245
G3 X3.5736 Y6.8268 I0 J0.1309
G3 X3.6101 Y6.8454 I-0.0405 J0.1245
G3 X3.6391 Y6.8744 I-0.0769 J0.1059
G3 X3.6577 Y6.9108 I-0.1059 J0.0769
G3 X3.6641 Y6.9513 I-0.1245 J0.0405
G1 X3.6641 Y6.9513
G1 X3.6641 Y6.9513
G3 X3.6577 Y6.9918 I-0.1309 J0
G3 X3.6391 Y7.0282 I-0.1245 J-0.0405
G3 X3.6101 Y7.0572 I-0.1059 J-0.0769
G3 X3.5736 Y7.0758 I-0.0769 J-0.1059
G3 X3.5332 Y7.0822 I-0.0405 J-0.1245
G3 X3.4927 Y7.0758 I0 J-0.1309
G3 X3.4562 Y7.0572 I0.0405 J-0.1245
G3 X3.4273 Y7.0282 I0.0769 J-0.1059
G3 X3.4087 Y6.9918 I0.1059 J-0.0769
G3 X3.4023 Y6.9513 I0.1245 J-0.0405
G1 X3.4023 Y6.9513
G1 X3.4023 Y6.9513
G3 X3.4087 Y6.9108 I0.1309 J0
G1 Z-0.48 F30
G3 X3.4273 Y6.8744 I0.1245 J0.0405 F20
G3 X3.4562 Y6.8454 I0.1059 J0.0769
G3 X3.4927 Y6.8268 I0.0769 J0.1059
G3 X3.5332 Y6.8204 I0.0405 J0.1245
G3 X3.5736 Y6.8268 I0 J0.1309
G3 X3.6101 Y6.8454 I-0.0405 J0.1245
G3 X3.6391 Y6.8744 I-0.0769 J0.1059
G3 X3.6577 Y6.9108 I-0.1059 J0.0769
G3 X3.6641 Y6.9513 I-0.1245 J0.0405
G1 X3.6641 Y6.9513
G1 X3.6641 Y6.9513
G3 X3.6577 Y6.9918 I-0.1309 J0
G3 X3.6391 Y7.0282 I-0.1245 J-0.0405
G3 X3.6101 Y7.0572 I-0.1059 J-0.0769
G3 X3.5736 Y7.0758 I-0.0769 J-0.1059
G3 X3.5332 Y7.0822 I-0.0405 J-0.1245
G3 X3.4927 Y7.0758 I0 J-0.1309
G3 X3.4562 Y7.0572 I0.0405 J-0.1245
G3 X3.4273 Y7.0282 I0.0769 J-0.1059
G3 X3.4087 Y6.9918 I0.1059 J-0.0769
G3 X3.4023 Y6.9513 I0.1245 J-0.0405
G1 X3.4023 Y6.9513
G1 X3.4023 Y6.9513
G3 X3.4087 Y6.9108 I0.1309 J0
G1 Z-0.6 F30
G3 X3.4273 Y6.8744 I0.1245 J0.0405 F20
G3 X3.4562 Y6.8454 I0.1059 J0.0769
G3 X3.4927 Y6.8268 I0.0769 J0.1059
G3 X3.5332 Y6.8204 I0.0405 J0.1245
G3 X3.5736 Y6.8268 I0 J0.1309
G3 X3.6101 Y6.8454 I-0.0405 J0.1245
G3 X3.6391 Y6.8744 I-0.0769 J0.1059
G3 X3.6577 Y6.9108 I-0.1059 J0.0769
G3 X3.6641 Y6.9513 I-0.1245 J0.0405
G1 X3.6641 Y6.9513
G1 X3.6641 Y6.9513
G3 X3.6577 Y6.9918 I-0.1309 J0
G3 X3.6391 Y7.0282 I-0.1245 J-0.0405
G3 X3.6101 Y7.0572 I-0.1059 J-0.0769
G3 X3.5736 Y7.0758 I-0.0769 J-0.1059
G3 X3.5332 Y7.0822 I-0.0405 J-0.1245
G3 X3.4927 Y7.0758 I0 J-0.1309
G3 X3.4562 Y7.0572 I0.0405 J-0.1245
G3 X3.4273 Y7.0282 I0.0769 J-0.1059
G3 X3.4087 Y6.9918 I0.1059 J-0.0769
G3 X3.4023 Y6.9513 I0.1245 J-0.0405
G1 X3.4023 Y6.9513
G1 X3.4023 Y6.9513
G3 X3.4087 Y6.9108 I0.1309 J0
G1 Z-0.72 F30
G3 X3.4273 Y6.8744 I0.1245 J0.0405 F20
G3 X3.4562 Y6.8454 I0.1059 J0.0769
G3 X3.4927 Y6.8268 I0.0769 J0.1059
G3 X3.5332 Y6.8204 I0.0405 J0.1245
G3 X3.5736 Y6.8268 I0 J0.1309
G3 X3.6101 Y6.8454 I-0.0405 J0.1245
G3 X3.6391 Y6.8744 I-0.0769 J0.1059
G3 X3.6577 Y6.9108 I-0.1059 J0.0769
G3 X3.6641 Y6.9513 I-0.1245 J0.0405
G1 X3.6641 Y6.9513
G1 X3.6641 Y6.9513
G3 X3.6577 Y6.9918 I-0.1309 J0
G3 X3.6391 Y7.0282 I-0.1245 J-0.0405
G3 X3.6101 Y7.0572 I-0.1059 J-0.0769
G3 X3.5736 Y7.0758 I-0.0769 J-0.1059
G3 X3.5332 Y7.0822 I-0.0405 J-0.1245
G3 X3.4927 Y7.0758 I0 J-0.1309
G3 X3.4562 Y7.0572 I0.0405 J-0.1245
G3 X3.4273 Y7.0282 I0.0769 J-0.1059
G3 X3.4087 Y6.9918 I0.1059 J-0.0769
G3 X3.4023 Y6.9513 I0.1245 J-0.0405
G1 X3.4023 Y6.9513
G1 X3.4023 Y6.9513
G3 X3.4087 Y6.9108 I0.1309 J0
G1 Z-0.8 F30
G3 X3.4273 Y6.8744 I0.1245 J0.0405 F20
G3 X3.4562 Y6.8454 I0.1059 J0.0769
G3 X3.4927 Y6.8268 I0.0769 J0.1059
G3 X3.5332 Y6.8204 I0.0405 J0.1245
G3 X3.5736 Y6.8268 I0 J0.1309
G3 X3.6101 Y6.8454 I-0.0405 J0.1245
G3 X3.6391 Y6.8744 I-0.0769 J0.1059
G3 X3.6577 Y6.9108 I-0.1059 J0.0769
G3 X3.6641 Y6.9513 I-0.1245 J0.0405
G1 X3.6641 Y6.9513
G1 X3.6641 Y6.9513
G3 X3.6577 Y6.9918 I-0.1309 J0
G3 X3.6391 Y7.0282 I-0.1245 J-0.0405
G3 X3.6101 Y7.0572 I-0.1059 J-0.0769
G3 X3.5736 Y7.0758 I-0.0769 J-0.1059
G3 X3.5332 Y7.0822 I-0.0405 J-0.1245
G3 X3.4927 Y7.0758 I0 J-0.1309
G3 X3.4562 Y7.0572 I0.0405 J-0.1245
G3 X3.4273 Y7.0282 I0.0769 J-0.1059
G3 X3.4087 Y6.9918 I0.1059 J-0.0769
G3 X3.4023 Y6.9513 I0.1245 J-0.0405
G1 X3.4023 Y6.9513
G1 X3.4023 Y6.9513
G3 X3.4087 Y6.9108 I0.1309 J0

(Drill Holes)
G0 Z0.15
G0 X9.2969 Y9.3698
G1 Z-0.8 F30
G1 Z0 F30
G0 Z0.15
G0 X2.0404 Y5.454
G1 Z-0.8 F30
G1 Z0 F30
G0 Z0.15
G0 X16.5534 Y5.454
G1 Z-0.8 F30
G1 Z0 F30
G0 Z0.15
G0 X13.2127 Y2.1133
G1 Z-0.8 F30
G1 Z0 F30
G0 Z0.15
G0 X5.3811 Y2.1133
G1 Z-0.8 F30
G1 Z0 F30

(Countersinks)
G0 Z0.15
G0 X16.3428 Y5.3181
G1 Z-0.1 F30
G3 X16.3766 Y5.2772 I0.2331 J0.1584 F20
G3 X16.4175 Y5.2434 I0.1993 J0.1993
G3 X16.4573 Y5.2219 I0.1246 J0.1834
G3 X16.5006 Y5.209 I0.0849 J0.2049
G3 X16.5534 Y5.204 I0.0528 J0.2769
G3 X16.6062 Y5.209 I0 J0.2819
G3 X16.6495 Y5.2219 I-0.0415 J0.2178
G3 X16.6893 Y5.2434 I-0.0849 J0.2049
G3 X16.7302 Y5.2772 I-0.1584 J0.2331
G3 X16.764 Y5.3181 I-0.1993 J0.1993
G3 X16.7854 Y5.3579 I-0.1834 J0.1246
G3 X16.7984 Y5.4012 I-0.2049 J0.0849
G3 X16.8034 Y5.454 I-0.2769 J0.0528
G3 X16.7984 Y5.5068 I-0.2819 J0
G3 X16.7854 Y5.5501 I-0.2178 J-0.0415
G3 X16.764 Y5.5899 I-0.2049 J-0.0849
G3 X16.7302 Y5.6307 I-0.2331 J-0.1584
G3 X16.6893 Y5.6646 I-0.1993 J-0.1993
G3 X16.6495 Y5.686 I-0.1246 J-0.1834
G3 X16.6062 Y5.699 I-0.0849 J-0.2049
G3 X16.5534 Y5.704 I-0.0528 J-0.2769
G3 X16.5006 Y5.699 I0 J-0.2819
G3 X16.4573 Y5.686 I0.0415 J-0.2178
G3 X16.4175 Y5.6646 I0.0849 J-0.2049
G3 X16.3766 Y5.6307 I0.1584 J-0.2331
G3 X16.3428 Y5.5899 I0.1993 J-0.1993
G3 X16.3213 Y5.5501 I0.1834 J-0.1246
G3 X16.3084 Y5.5068 I0.2049 J-0.0849
G3 X16.3034 Y5.454 I0.2769 J-0.0528
G3 X16.3084 Y5.4012 I0.2819 J0
G3 X16.3213 Y5.3579 I0.2178 J0.0415
G3 X16.3428 Y5.3181 I0.2049 J0.0849
G1 Z-0.2 F30
G3 X16.3766 Y5.2772 I0.2331 J0.1584 F20
G3 X16.4175 Y5.2434 I0.1993 J0.1993
G3 X16.4573 Y5.2219 I0.1246 J0.1834
G3 X16.5006 Y5.209 I0.0849 J0.2049
G3 X16.5534 Y5.204 I0.0528 J0.2769
G3 X16.6062 Y5.209 I0 J0.2819
G3 X16.6495 Y5.2219 I-0.0415 J0.2178
G3 X16.6893 Y5.2434 I-0.0849 J0.2049
G3 X16.7302 Y5.2772 I-0.1584 J0.2331
G3 X16.764 Y5.3181 I-0.1993 J0.1993
G3 X16.7854 Y5.3579 I-0.1834 J0.1246
G3 X16.7984 Y5.4012 I-0.2049 J0.0849
G3 X16.8034 Y5.454 I-0.2769 J0.0528
G3 X16.7984 Y5.5068 I-0.2819 J0
G3 X16.7854 Y5.5501 I-0.2178 J-0.0415
G3 X16.764 Y5.5899 I-0.2049 J-0.0849
G3 X16.7302 Y5.6307 I-0.2331 J-0.1584
G3 X16.6893 Y5.6646 I-0.1993 J-0.1993
G3 X16.6495 Y5.686 I-0.1246 J-0.1834
G3 X16.6062 Y5.699 I-0.0849 J-0.2049
G3 X16.5534 Y5.704 I-0.0528 J-0.2769
G3 X16.5006 Y5.699 I0 J-0.2819
G3 X16.4573 Y5.686 I0.0415 J-0.2178
G3 X16.4175 Y5.6646 I0.0849 J-0.2049
G3 X16.3766 Y5.6307 I0.1584 J-0.2331
G3 X16.3428 Y5.5899 I0.1993 J-0.1993
G3 X16.3213 Y5.5501 I0.1834 J-0.1246
G3 X16.3084 Y5.5068 I0.2049 J-0.0849
G3 X16.3034 Y5.454 I0.2769 J-0.0528
G3 X16.3084 Y5.4012 I0.2819 J0
G3 X16.3213 Y5.3579 I0.2178 J0.0415
G3 X16.3428 Y5.3181 I0.2049 J0.0849
G1 Z-0.25 F30
G3 X16.3766 Y5.2772 I0.2331 J0.1584 F20
G3 X16.4175 Y5.2434 I0.1993 J0.1993
G3 X16.4573 Y5.2219 I0.1246 J0.1834
G3 X16.5006 Y5.209 I0.0849 J0.2049
G3 X16.5534 Y5.204 I0.0528 J0.2769
G3 X16.6062 Y5.209 I0 J0.2819
G3 X16.6495 Y5.2219 I-0.0415 J0.2178
G3 X16.6893 Y5.2434 I-0.0849 J0.2049
G3 X16.7302 Y5.2772 I-0.1584 J0.2331
G3 X16.764 Y5.3181 I-0.1993 J0.1993
G3 X16.7854 Y5.3579 I-0.1834 J0.1246
G3 X16.7984 Y5.4012 I-0.2049 J0.0849
G3 X16.8034 Y5.454 I-0.2769 J0.0528
G3 X16.7984 Y5.5068 I-0.2819 J0
G3 X16.7854 Y5.5501 I-0.2178 J-0.0415
G3 X16.764 Y5.5899 I-0.2049 J-0.0849
G3 X16.7302 Y5.6307 I-0.2331 J-0.1584
G3 X16.6893 Y5.6646 I-0.1993 J-0.1993
G3 X16.6495 Y5.686 I-0.1246 J-0.1834
G3 X16.6062 Y5.699 I-0.0849 J-0.2049
G3 X16.5534 Y5.704 I-0.0528 J-0.2769
G3 X16.5006 Y5.699 I0 J-0.2819
G3 X16.4573 Y5.686 I0.0415 J-0.2178
G3 X16.4175 Y5.6646 I0.0849 J-0.2049
G3 X16.3766 Y5.6307 I0.1584 J-0.2331
G3 X16.3428 Y5.5899 I0.1993 J-0.1993
G3 X16.3213 Y5.5501 I0.1834 J-0.1246
G3 X16.3084 Y5.5068 I0.2049 J-0.0849
G3 X16.3034 Y5.454 I0.2769 J-0.0528
G3 X16.3084 Y5.4012 I0.2819 J0
G3 X16.3213 Y5.3579 I0.2178 J0.0415
G3 X16.3428 Y5.3181 I0.2049 J0.0849
G0 Z0.15
G0 X13.3486 Y1.9027
G1 Z-0.1 F30
G3 X13.3895 Y1.9365 I-0.1584 J0.2331 F20
G3 X13.4233 Y1.9774 I-0.1993 J0.1993
G3 X13.4448 Y2.0172 I-0.1834 J0.1246
G3 X13.4577 Y2.0605 I-0.2049 J0.0849
G3 X13.4627 Y2.1133 I-0.2769 J0.0528
G3 X13.4577 Y2.1661 I-0.2819 J0
G3 X13.4448 Y2.2094 I-0.2178 J-0.0415
G3 X13.4233 Y2.2492 I-0.2049 J-0.0849
G3 X13.3895 Y2.2901 I-0.2331 J-0.1584
G3 X13.3486 Y2.3239 I-0.1993 J-0.1993
G3 X13.3088 Y2.3454 I-0.1246 J-0.1834
G3 X13.2655 Y2.3583 I-0.0849 J-0.2049
G3 X13.2127 Y2.3633 I-0.0528 J-0.2769
G3 X13.1599 Y2.3583 I0 J-0.2819
G3 X13.1166 Y2.3454 I0.0415 J-0.2178
G3 X13.0768 Y2.3239 I0.0849 J-0.2049
G3 X13.0359 Y2.2901 I0.1584 J-0.2331
G3 X13.0021 Y2.2492 I0.1993 J-0.1993
G3 X12.9807 Y2.2094 I0.1834 J-0.1246
G3 X12.9677 Y2.1661 I0.2049 J-0.0849
G3 X12.9627 Y2.1133 I0.2769 J-0.0528
G3 X12.9677 Y2.0605 I0.2819 J0
G3 X12.9807 Y2.0172 I0.2178 J0.0415
G3 X13.0021 Y1.9774 I0.2049 J0.0849
G3 X13.0359 Y1.9365 I0.2331 J0.1584
G3 X13.0768 Y1.9027 I0.1993 J0.1993
G3 X13.1166 Y1.8813 I0.1246 J0.1834
G3 X13.1599 Y1.8683 I0.0849 J0.2049
G3 X13.2127 Y1.8633 I0.0528 J0.2769
G3 X13.2655 Y1.8683 I0 J0.2819
G3 X13.3088 Y1.8813 I-0.0415 J0.2178
G3 X13.3486 Y1.9027 I-0.0849 J0.2049
G1 Z-0.2 F30
G3 X13.3895 Y1.9365 I-0.1584 J0.2331 F20
G3 X13.4233 Y1.9774 I-0.1993 J0.1993
G3 X13.4448 Y2.0172 I-0.1834 J0.1246
G3 X13.4577 Y2.0605 I-0.2049 J0.0849
G3 X13.4627 Y2.1133 I-0.2769 J0.0528
G3 X13.4577 Y2.1661 I-0.2819 J0
G3 X13.4448 Y2.2094 I-0.2178 J-0.0415
G3 X13.4233 Y2.2492 I-0.2049 J-0.0849
G3 X13.3895 Y2.2901 I-0.2331 J-0.1584
G3 X13.3486 Y2.3239 I-0.1993 J-0.1993
G3 X13.3088 Y2.3454 I-0.1246 J-0.1834
G3 X13.2655 Y2.3583 I-0.0849 J-0.2049
G3 X13.2127 Y2.3633 I-0.0528 J-0.2769
G3 X13.1599 Y2.3583 I0 J-0.2819
G3 X13.1166 Y2.3454 I0.0415 J-0.2178
G3 X13.0768 Y2.3239 I0.0849 J-0.2049
G3 X13.0359 Y2.2901 I0.1584 J-0.2331
G3 X13.0021 Y2.2492 I0.1993 J-0.1993
G3 X12.9807 Y2.2094 I0.1834 J-0.1246
G3 X12.9677 Y2.1661 I0.2049 J-0.0849
G3 X12.9627 Y2.1133 I0.2769 J-0.0528
G3 X12.9677 Y2.0605 I0.2819 J0
G3 X12.9807 Y2.0172 I0.2178 J0.0415
G3 X13.0021 Y1.9774 I0.2049 J0.0849
G3 X13.0359 Y1.9365 I0.2331 J0.1584
G3 X13.0768 Y1.9027 I0.1993 J0.1993
G3 X13.1166 Y1.8813 I0.1246 J0.1834
G3 X13.1599 Y1.8683 I0.0849 J0.2049
G3 X13.2127 Y1.8633 I0.0528 J0.2769
G3 X13.2655 Y1.8683 I0 J0.2819
G3 X13.3088 Y1.8813 I-0.0415 J0.2178
G3 X13.3486 Y1.9027 I-0.0849 J0.2049
G1 Z-0.25 F30
G3 X13.3895 Y1.9365 I-0.1584 J0.2331 F20
G3 X13.4233 Y1.9774 I-0.1993 J0.1993
G3 X13.4448 Y2.0172 I-0.1834 J0.1246
G3 X13.4577 Y2.0605 I-0.2049 J0.0849
G3 X13.4627 Y2.1133 I-0.2769 J0.0528
G3 X13.4577 Y2.1661 I-0.2819 J0
G3 X13.4448 Y2.2094 I-0.2178 J-0.0415
G3 X13.4233 Y2.2492 I-0.2049 J-0.0849
G3 X13.3895 Y2.2901 I-0.2331 J-0.1584
G3 X13.3486 Y2.3239 I-0.1993 J-0.1993
G3 X13.3088 Y2.3454 I-0.1246 J-0.1834
G3 X13.2655 Y2.3583 I-0.0849 J-0.2049
G3 X13.2127 Y2.3633 I-0.0528 J-0.2769
G3 X13.1599 Y2.3583 I0 J-0.2819
G3 X13.1166 Y2.3454 I0.0415 J-0.2178
G3 X13.0768 Y2.3239 I0.0849 J-0.2049
G3 X13.0359 Y2.2901 I0.1584 J-0.2331
G3 X13.0021 Y2.2492 I0.1993 J-0.1993
G3 X12.9807 Y2.2094 I0.1834 J-0.1246
G3 X12.9677 Y2.1661 I0.2049 J-0.0849
G3 X12.9627 Y2.1133 I0.2769 J-0.0528
G3 X12.9677 Y2.0605 I0.2819 J0
G3 X12.9807 Y2.0172 I0.2178 J0.0415
G3 X13.0021 Y1.9774 I0.2049 J0.0849
G3 X13.0359 Y1.9365 I0.2331 J0.1584
G3 X13.0768 Y1.9027 I0.1993 J0.1993
G3 X13.1166 Y1.8813 I0.1246 J0.1834
G3 X13.1599 Y1.8683 I0.0849 J0.2049
G3 X13.2127 Y1.8633 I0.0528 J0.2769
G3 X13.2655 Y1.8683 I0 J0.2819
G3 X13.3088 Y1.8813 I-0.0415 J0.2178
G3 X13.3486 Y1.9027 I-0.0849 J0.2049
G0 Z0.15
G0 X2.2172 Y5.6307
G1 Z-0.1 F30
G3 X2.1763 Y5.6646 I-0.1993 J-0.1993 F20
G3 X2.1366 Y5.686 I-0.1246 J-0.1834
G3 X2.0932 Y5.699 I-0.0849 J-0.2049
G3 X2.0404 Y5.704 I-0.0528 J-0.2769
G3 X1.9876 Y5.699 I0 J-0.2819
G3 X1.9443 Y5.686 I0.0415 J-0.2178
G3 X1.9045 Y5.6646 I0.0849 J-0.2049
G3 X1.8637 Y5.6307 I0.1584 J-0.2331
G3 X1.8298 Y5.5899 I0.1993 J-0.1993
G3 X1.8084 Y5.5501 I0.1834 J-0.1246
G3 X1.7954 Y5.5068 I0.2049 J-0.0849
G3 X1.7904 Y5.454 I0.2769 J-0.0528
G3 X1.7954 Y5.4012 I0.2819 J0
G3 X1.8084 Y5.3579 I0.2178 J0.0415
G3 X1.8298 Y5.3181 I0.2049 J0.0849
G3 X1.8637 Y5.2772 I0.2331 J0.1584
G3 X1.9045 Y5.2434 I0.1993 J0.1993
G3 X1.9443 Y5.2219 I0.1246 J0.1834
G3 X1.9876 Y5.209 I0.0849 J0.2049
G3 X2.0404 Y5.204 I0.0528 J0.2769
G3 X2.0932 Y5.209 I0 J0.2819
G3 X2.1366 Y5.2219 I-0.0415 J0.2178
G3 X2.1763 Y5.2434 I-0.0849 J0.2049
G3 X2.2172 Y5.2772 I-0.1584 J0.2331
G3 X2.251 Y5.3181 I-0.1993 J0.1993
G3 X2.2725 Y5.3579 I-0.1834 J0.1246
G3 X2.2854 Y5.4012 I-0.2049 J0.0849
G3 X2.2904 Y5.454 I-0.2769 J0.0528
G3 X2.2854 Y5.5068 I-0.2819 J0
G3 X2.2725 Y5.5501 I-0.2178 J-0.0415
G3 X2.251 Y5.5899 I-0.2049 J-0.0849
G3 X2.2172 Y5.6307 I-0.2331 J-0.1584
G1 Z-0.2 F30
G3 X2.1763 Y5.6646 I-0.1993 J-0.1993 F20
G3 X2.1366 Y5.686 I-0.1246 J-0.1834
G3 X2.0932 Y5.699 I-0.0849 J-0.2049
G3 X2.0404 Y5.704 I-0.0528 J-0.2769
G3 X1.9876 Y5.699 I0 J-0.2819
G3 X1.9443 Y5.686 I0.0415 J-0.2178
G3 X1.9045 Y5.6646 I0.0849 J-0.2049
G3 X1.8637 Y5.6307 I0.1584 J-0.2331
G3 X1.8298 Y5.5899 I0.1993 J-0.1993
G3 X1.8084 Y5.5501 I0.1834 J-0.1246
G3 X1.7954 Y5.5068 I0.2049 J-0.0849
G3 X1.7904 Y5.454 I0.2769 J-0.0528
G3 X1.7954 Y5.4012 I0.2819 J0
G3 X1.8084 Y5.3579 I0.2178 J0.0415
G3 X1.8298 Y5.3181 I0.2049 J0.0849
G3 X1.8637 Y5.2772 I0.2331 J0.1584
G3 X1.9045 Y5.2434 I0.1993 J0.1993
G3 X1.9443 Y5.2219 I0.1246 J0.1834
G3 X1.9876 Y5.209 I0.0849 J0.2049
G3 X2.0404 Y5.204 I0.0528 J0.2769
G3 X2.0932 Y5.209 I0 J0.2819
G3 X2.1366 Y5.2219 I-0.0415 J0.2178
G3 X2.1763 Y5.2434 I-0.0849 J0.2049
G3 X2.2172 Y5.2772 I-0.1584 J0.2331
G3 X2.251 Y5.3181 I-0.1993 J0.1993
G3 X2.2725 Y5.3579 I-0.1834 J0.1246
G3 X2.2854 Y5.4012 I-0.2049 J0.0849
G3 X2.2904 Y5.454 I-0.2769 J0.0528
G3 X2.2854 Y5.5068 I-0.2819 J0
G3 X2.2725 Y5.5501 I-0.2178 J-0.0415
G3 X2.251 Y5.5899 I-0.2049 J-0.0849
G3 X2.2172 Y5.6307 I-0.2331 J-0.1584
G1 Z-0.25 F30
G3 X2.1763 Y5.6646 I-0.1993 J-0.1993 F20
G3 X2.1366 Y5.686 I-0.1246 J-0.1834
G3 X2.0932 Y5.699 I-0.0849 J-0.2049
G3 X2.0404 Y5.704 I-0.0528 J-0.2769
G3 X1.9876 Y5.699 I0 J-0.2819
G3 X1.9443 Y5.686 I0.0415 J-0.2178
G3 X1.9045 Y5.6646 I0.0849 J-0.2049
G3 X1.8637 Y5.6307 I0.1584 J-0.2331
G3 X1.8298 Y5.5899 I0.1993 J-0.1993
G3 X1.8084 Y5.5501 I0.1834 J-0.1246
G3 X1.7954 Y5.5068 I0.2049 J-0.0849
G3 X1.7904 Y5.454 I0.2769 J-0.0528
G3 X1.7954 Y5.4012 I0.2819 J0
G3 X1.8084 Y5.3579 I0.2178 J0.0415
G3 X1.8298 Y5.3181 I0.2049 J0.0849
G3 X1.8637 Y5.2772 I0.2331 J0.1584
G3 X1.9045 Y5.2434 I0.1993 J0.1993
G3 X1.9443 Y5.2219 I0.1246 J0.1834
G3 X1.9876 Y5.209 I0.0849 J0.2049
G3 X2.0404 Y5.204 I0.0528 J0.2769
G3 X2.0932 Y5.209 I0 J0.2819
G3 X2.1366 Y5.2219 I-0.0415 J0.2178
G3 X2.1763 Y5.2434 I-0.0849 J0.2049
G3 X2.2172 Y5.2772 I-0.1584 J0.2331
G3 X2.251 Y5.3181 I-0.1993 J0.1993
G3 X2.2725 Y5.3579 I-0.1834 J0.1246
G3 X2.2854 Y5.4012 I-0.2049 J0.0849
G3 X2.2904 Y5.454 I-0.2769 J0.0528
G3 X2.2854 Y5.5068 I-0.2819 J0
G3 X2.2725 Y5.5501 I-0.2178 J-0.0415
G3 X2.251 Y5.5899 I-0.2049 J-0.0849
G3 X2.2172 Y5.6307 I-0.2331 J-0.1584
G0 Z0.15
G0 X5.5579 Y2.2901
G1 Z-0.1 F30
G3 X5.517 Y2.3239 I-0.1993 J-0.1993 F20
G3 X5.4772 Y2.3454 I-0.1246 J-0.1834
G3 X5.4339 Y2.3583 I-0.0849 J-0.2049
G3 X5.3811 Y2.3633 I-0.0528 J-0.2769
G3 X5.3283 Y2.3583 I0 J-0.2819
G3 X5.285 Y2.3454 I0.0415 J-0.2178
G3 X5.2452 Y2.3239 I0.0849 J-0.2049
G3 X5.2043 Y2.2901 I0.1584 J-0.2331
G3 X5.1705 Y2.2492 I0.1993 J-0.1993
G3 X5.149 Y2.2094 I0.1834 J-0.1246
G3 X5.1361 Y2.1661 I0.2049 J-0.0849
G3 X5.1311 Y2.1133 I0.2769 J-0.0528
G3 X5.1361 Y2.0605 I0.2819 J0
G3 X5.149 Y2.0172 I0.2178 J0.0415
G3 X5.1705 Y1.9774 I0.2049 J0.0849
G3 X5.2043 Y1.9365 I0.2331 J0.1584
G3 X5.2452 Y1.9027 I0.1993 J0.1993
G3 X5.285 Y1.8813 I0.1246 J0.1834
G3 X5.3283 Y1.8683 I0.0849 J0.2049
G3 X5.3811 Y1.8633 I0.0528 J0.2769
G3 X5.4339 Y1.8683 I0 J0.2819
G3 X5.4772 Y1.8813 I-0.0415 J0.2178
G3 X5.517 Y1.9027 I-0.0849 J0.2049
G3 X5.5579 Y1.9365 I-0.1584 J0.2331
G3 X5.5917 Y1.9774 I-0.1993 J0.1993
G3 X5.6131 Y2.0172 I-0.1834 J0.1246
G3 X5.6261 Y2.0605 I-0.2049 J0.0849
G3 X5.6311 Y2.1133 I-0.2769 J0.0528
G3 X5.6261 Y2.1661 I-0.2819 J0
G3 X5.6131 Y2.2094 I-0.2178 J-0.0415
G3 X5.5917 Y2.2492 I-0.2049 J-0.0849
G3 X5.5579 Y2.2901 I-0.2331 J-0.1584
G1 Z-0.2 F30
G3 X5.517 Y2.3239 I-0.1993 J-0.1993 F20
G3 X5.4772 Y2.3454 I-0.1246 J-0.1834
G3 X5.4339 Y2.3583 I-0.0849 J-0.2049
G3 X5.3811 Y2.3633 I-0.0528 J-0.2769
G3 X5.3283 Y2.3583 I0 J-0.2819
G3 X5.285 Y2.3454 I0.0415 J-0.2178
G3 X5.2452 Y2.3239 I0.0849 J-0.2049
G3 X5.2043 Y2.2901 I0.1584 J-0.2331
G3 X5.1705 Y2.2492 I0.1993 J-0.1993
G3 X5.149 Y2.2094 I0.1834 J-0.1246
G3 X5.1361 Y2.1661 I0.2049 J-0.0849
G3 X5.1311 Y2.1133 I0.2769 J-0.0528
G3 X5.1361 Y2.0605 I0.2819 J0
G3 X5.149 Y2.0172 I0.2178 J0.0415
G3 X5.1705 Y1.9774 I0.2049 J0.0849
G3 X5.2043 Y1.9365 I0.2331 J0.1584
G3 X5.2452 Y1.9027 I0.1993 J0.1993
G3 X5.285 Y1.8813 I0.1246 J0.1834
G3 X5.3283 Y1.8683 I0.0849 J0.2049
G3 X5.3811 Y1.8633 I0.0528 J0.2769
G3 X5.4339 Y1.8683 I0 J0.2819
G3 X5.4772 Y1.8813 I-0.0415 J0.2178
G3 X5.517 Y1.9027 I-0.0849 J0.2049
G3 X5.5579 Y1.9365 I-0.1584 J0.2331
G3 X5.5917 Y1.9774 I-0.1993 J0.1993
G3 X5.6131 Y2.0172 I-0.1834 J0.1246
G3 X5.6261 Y2.0605 I-0.2049 J0.0849
G3 X5.6311 Y2.1133 I-0.2769 J0.0528
G3 X5.6261 Y2.1661 I-0.2819 J0
G3 X5.6131 Y2.2094 I-0.2178 J-0.0415
G3 X5.5917 Y2.2492 I-0.2049 J-0.0849
G3 X5.5579 Y2.2901 I-0.2331 J-0.1584
G1 Z-0.25 F30
G3 X5.517 Y2.3239 I-0.1993 J-0.1993 F20
G3 X5.4772 Y2.3454 I-0.1246 J-0.1834
G3 X5.4339 Y2.3583 I-0.0849 J-0.2049
G3 X5.3811 Y2.3633 I-0.0528 J-0.2769
G3 X5.3283 Y2.3583 I0 J-0.2819
G3 X5.285 Y2.3454 I0.0415 J-0.2178
G3 X5.2452 Y2.3239 I0.0849 J-0.2049
G3 X5.2043 Y2.2901 I0.1584 J-0.2331
G3 X5.1705 Y2.2492 I0.1993 J-0.1993
G3 X5.149 Y2.2094 I0.1834 J-0.1246
G3 X5.1361 Y2.1661 I0.2049 J-0.0849
G3 X5.1311 Y2.1133 I0.2769 J-0.0528
G3 X5.1361 Y2.0605 I0.2819 J0
G3 X5.149 Y2.0172 I0.2178 J0.0415
G3 X5.1705 Y1.9774 I0.2049 J0.0849
G3 X5.2043 Y1.9365 I0.2331 J0.1584
G3 X5.2452 Y1.9027 I0.1993 J0.1993
G3 X5.285 Y1.8813 I0.1246 J0.1834
G3 X5.3283 Y1.8683 I0.0849 J0.2049
G3 X5.3811 Y1.8633 I0.0528 J0.2769
G3 X5.4339 Y1.8683 I0 J0.2819
G3 X5.4772 Y1.8813 I-0.0415 J0.2178
G3 X5.517 Y1.9027 I-0.0849 J0.2049
G3 X5.5579 Y1.9365 I-0.1584 J0.2331
G3 X5.5917 Y1.9774 I-0.1993 J0.1993
G3 X5.6131 Y2.0172 I-0.1834 J0.1246
G3 X5.6261 Y2.0605 I-0.2049 J0.0849
G3 X5.6311 Y2.1133 I-0.2769 J0.0528
G3 X5.6261 Y2.1661 I-0.2819 J0
G3 X5.6131 Y2.2094 I-0.2178 J-0.0415
G3 X5.5917 Y2.2492 I-0.2049 J-0.0849
G3 X5.5579 Y2.2901 I-0.2331 J-0.1584

(Center Hole)
G0 Z0.15
G0 X9.7218 Y10.6775
G1 Z-0.1 F30
G3 X9.5057 Y10.7298 I-0.4492 J-1.3825 F60
G3 X9.2969 Y10.7467 I-0.2088 J-1.2852
G3 X9.2292 Y10.7449 I0 J-1.302
G3 X9.0881 Y10.7298 I0.0677 J-1.3003
G3 X8.872 Y10.6775 I0.2331 J-1.4349
G3 X8.6664 Y10.5928 I0.4492 J-1.3825
G3 X8.4876 Y10.4837 I0.5865 J-1.1625
G3 X8.3286 Y10.3474 I0.7653 J-1.0534
G3 X8.1845 Y10.178 I1.032 J-1.0238
G3 X8.068 Y9.9886 I1.1761 J-0.8545
G3 X7.9874 Y9.7953 I1.1578 J-0.5957
G3 X7.9389 Y9.5915 I1.2383 J-0.4024
G3 X7.9219 Y9.3698 I1.4367 J-0.2217
G1 X7.9219 Y9.3698
G1 X7.9219 Y9.3698
G3 X7.9389 Y9.1481 I1.4537 J0
G3 X7.9798 Y8.9684 I1.2868 J0.1986
G3 X7.9874 Y8.9443 I1.2459 J0.3783
G3 X8.068 Y8.7509 I1.2383 J0.4024
G3 X8.1845 Y8.5616 I1.2926 J0.6651
G3 X8.21 Y8.5276 I1.1761 J0.8545
G3 X8.3286 Y8.3922 I1.1506 J0.8885
G3 X8.4876 Y8.2559 I0.9243 J0.917
G3 X8.6664 Y8.1468 I0.7653 J1.0534
G3 X8.872 Y8.0621 I0.6548 J1.2979
G3 X9.0881 Y8.0097 I0.4492 J1.3825
G3 X9.2969 Y7.9929 I0.2088 J1.2852
G3 X9.5057 Y8.0097 I0 J1.302
G3 X9.7218 Y8.0621 I-0.2331 J1.4349
G3 X9.9274 Y8.1468 I-0.4492 J1.3825
G3 X10.1062 Y8.2559 I-0.5865 J1.1625
G3 X10.2652 Y8.3922 I-0.7653 J1.0534
G3 X10.3233 Y8.4542 I-1.032 J1.0238
G3 X10.4093 Y8.5616 I-1.09 J0.9618
G3 X10.5259 Y8.7509 I-1.1761 J0.8545
G3 X10.583 Y8.8785 I-1.1578 J0.5957
G3 X10.6064 Y8.9443 I-1.215 J0.4682
G3 X10.6549 Y9.1481 I-1.2383 J0.4024
G3 X10.6719 Y9.3698 I-1.4367 J0.2217
G1 X10.6719 Y9.3698
G1 X10.6719 Y9.3698
G3 X10.6549 Y9.5915 I-1.4537 J0
G3 X10.6064 Y9.7953 I-1.2868 J-0.1986
G3 X10.5259 Y9.9886 I-1.2383 J-0.4024
G3 X10.4093 Y10.178 I-1.2926 J-0.6651
G3 X10.2652 Y10.3474 I-1.1761 J-0.8545
G3 X10.1062 Y10.4837 I-0.9243 J-0.917
G3 X9.9274 Y10.5928 I-0.7653 J-1.0534
G3 X9.7218 Y10.6775 I-0.6548 J-1.2979
G1 Z-0.2 F30
G3 X9.5057 Y10.7298 I-0.4492 J-1.3825 F60
G3 X9.2969 Y10.7467 I-0.2088 J-1.2852
G3 X9.2292 Y10.7449 I0 J-1.302
G3 X9.0881 Y10.7298 I0.0677 J-1.3003
G3 X8.872 Y10.6775 I0.2331 J-1.4349
G3 X8.6664 Y10.5928 I0.4492 J-1.3825
G3 X8.4876 Y10.4837 I0.5865 J-1.1625
G3 X8.3286 Y10.3474 I0.7653 J-1.0534
G3 X8.1845 Y10.178 I1.032 J-1.0238
G3 X8.068 Y9.9886 I1.1761 J-0.8545
G3 X7.9874 Y9.7953 I1.1578 J-0.5957
G3 X7.9389 Y9.5915 I1.2383 J-0.4024
G3 X7.9219 Y9.3698 I1.4367 J-0.2217
G1 X7.9219 Y9.3698
G1 X7.9219 Y9.3698
G3 X7.9389 Y9.1481 I1.4537 J0
G3 X7.9798 Y8.9684 I1.2868 J0.1986
G3 X7.9874 Y8.9443 I1.2459 J0.3783
G3 X8.068 Y8.7509 I1.2383 J0.4024
G3 X8.1845 Y8.5616 I1.2926 J0.6651
G3 X8.21 Y8.5276 I1.1761 J0.8545
G3 X8.3286 Y8.3922 I1.1506 J0.8885
G3 X8.4876 Y8.2559 I0.9243 J0.917
G3 X8.6664 Y8.1468 I0.7653 J1.0534
G3 X8.872 Y8.0621 I0.6548 J1.2979
G3 X9.0881 Y8.0097 I0.4492 J1.3825
G3 X9.2969 Y7.9929 I0.2088 J1.2852
G3 X9.5057 Y8.0097 I0 J1.302
G3 X9.7218 Y8.0621 I-0.2331 J1.4349
G3 X9.9274 Y8.1468 I-0.4492 J1.3825
G3 X10.1062 Y8.2559 I-0.5865 J1.1625
G3 X10.2652 Y8.3922 I-0.7653 J1.0534
G3 X10.3233 Y8.4542 I-1.032 J1.0238
G3 X10.4093 Y8.5616 I-1.09 J0.9618
G3 X10.5259 Y8.7509 I-1.1761 J0.8545
G3 X10.583 Y8.8785 I-1.1578 J0.5957
G3 X10.6064 Y8.9443 I-1.215 J0.4682
G3 X10.6549 Y9.1481 I-1.2383 J0.4024
G3 X10.6719 Y9.3698 I-1.4367 J0.2217
G1 X10.6719 Y9.3698
G1 X10.6719 Y9.3698
G3 X10.6549 Y9.5915 I-1.4537 J0
G3 X10.6064 Y9.7953 I-1.2868 J-0.1986
G3 X10.5259 Y9.9886 I-1.2383 J-0.4024
G3 X10.4093 Y10.178 I-1.2926 J-0.6651
G3 X10.2652 Y10.3474 I-1.1761 J-0.8545
G3 X10.1062 Y10.4837 I-0.9243 J-0.917
G3 X9.9274 Y10.5928 I-0.7653 J-1.0534
G3 X9.7218 Y10.6775 I-0.6548 J-1.2979
G1 Z-0.3 F30
G3 X9.5057 Y10.7298 I-0.4492 J-1.3825 F60
G3 X9.2969 Y10.7467 I-0.2088 J-1.2852
G3 X9.2292 Y10.7449 I0 J-1.302
G3 X9.0881 Y10.7298 I0.0677 J-1.3003
G3 X8.872 Y10.6775 I0.2331 J-1.4349
G3 X8.6664 Y10.5928 I0.4492 J-1.3825
G3 X8.4876 Y10.4837 I0.5865 J-1.1625
G3 X8.3286 Y10.3474 I0.7653 J-1.0534
G3 X8.1845 Y10.178 I1.032 J-1.0238
G3 X8.068 Y9.9886 I1.1761 J-0.8545
G3 X7.9874 Y9.7953 I1.1578 J-0.5957
G3 X7.9389 Y9.5915 I1.2383 J-0.4024
G3 X7.9219 Y9.3698 I1.4367 J-0.2217
G1 X7.9219 Y9.3698
G1 X7.9219 Y9.3698
G3 X7.9389 Y9.1481 I1.4537 J0
G3 X7.9798 Y8.9684 I1.2868 J0.1986
G3 X7.9874 Y8.9443 I1.2459 J0.3783
G3 X8.068 Y8.7509 I1.2383 J0.4024
G3 X8.1845 Y8.5616 I1.2926 J0.6651
G3 X8.21 Y8.5276 I1.1761 J0.8545
G3 X8.3286 Y8.3922 I1.1506 J0.8885
G3 X8.4876 Y8.2559 I0.9243 J0.917
G3 X8.6664 Y8.1468 I0.7653 J1.0534
G3 X8.872 Y8.0621 I0.6548 J1.2979
G3 X9.0881 Y8.0097 I0.4492 J1.3825
G3 X9.2969 Y7.9929 I0.2088 J1.2852
G3 X9.5057 Y8.0097 I0 J1.302
G3 X9.7218 Y8.0621 I-0.2331 J1.4349
G3 X9.9274 Y8.1468 I-0.4492 J1.3825
G3 X10.1062 Y8.2559 I-0.5865 J1.1625
G3 X10.2652 Y8.3922 I-0.7653 J1.0534
G3 X10.3233 Y8.4542 I-1.032 J1.0238
G3 X10.4093 Y8.5616 I-1.09 J0.9618
G3 X10.5259 Y8.7509 I-1.1761 J0.8545
G3 X10.583 Y8.8785 I-1.1578 J0.5957
G3 X10.6064 Y8.9443 I-1.215 J0.4682
G3 X10.6549 Y9.1481 I-1.2383 J0.4024
G3 X10.6719 Y9.3698 I-1.4367 J0.2217
G1 X10.6719 Y9.3698
G1 X10.6719 Y9.3698
G3 X10.6549 Y9.5915 I-1.4537 J0
G3 X10.6064 Y9.7953 I-1.2868 J-0.1986
G3 X10.5259 Y9.9886 I-1.2383 J-0.4024
G3 X10.4093 Y10.178 I-1.2926 J-0.6651
G3 X10.2652 Y10.3474 I-1.1761 J-0.8545
G3 X10.1062 Y10.4837 I-0.9243 J-0.917
G3 X9.9274 Y10.5928 I-0.7653 J-1.0534
G3 X9.7218 Y10.6775 I-0.6548 J-1.2979
G1 Z-0.4 F30
G3 X9.5057 Y10.7298 I-0.4492 J-1.3825 F60
G3 X9.2969 Y10.7467 I-0.2088 J-1.2852
G3 X9.2292 Y10.7449 I0 J-1.302
G3 X9.0881 Y10.7298 I0.0677 J-1.3003
G3 X8.872 Y10.6775 I0.2331 J-1.4349
G3 X8.6664 Y10.5928 I0.4492 J-1.3825
G3 X8.4876 Y10.4837 I0.5865 J-1.1625
G3 X8.3286 Y10.3474 I0.7653 J-1.0534
G3 X8.1845 Y10.178 I1.032 J-1.0238
G3 X8.068 Y9.9886 I1.1761 J-0.8545
G3 X7.9874 Y9.7953 I1.1578 J-0.5957
G3 X7.9389 Y9.5915 I1.2383 J-0.4024
G3 X7.9219 Y9.3698 I1.4367 J-0.2217
G1 X7.9219 Y9.3698
G1 X7.9219 Y9.3698
G3 X7.9389 Y9.1481 I1.4537 J0
G3 X7.9798 Y8.9684 I1.2868 J0.1986
G3 X7.9874 Y8.9443 I1.2459 J0.3783
G3 X8.068 Y8.7509 I1.2383 J0.4024
G3 X8.1845 Y8.5616 I1.2926 J0.6651
G3 X8.21 Y8.5276 I1.1761 J0.8545
G3 X8.3286 Y8.3922 I1.1506 J0.8885
G3 X8.4876 Y8.2559 I0.9243 J0.917
G3 X8.6664 Y8.1468 I0.7653 J1.0534
G3 X8.872 Y8.0621 I0.6548 J1.2979
G3 X9.0881 Y8.0097 I0.4492 J1.3825
G3 X9.2969 Y7.9929 I0.2088 J1.2852
G3 X9.5057 Y8.0097 I0 J1.302
G3 X9.7218 Y8.0621 I-0.2331 J1.4349
G3 X9.9274 Y8.1468 I-0.4492 J1.3825
G3 X10.1062 Y8.2559 I-0.5865 J1.1625
G3 X10.2652 Y8.3922 I-0.7653 J1.0534
G3 X10.3233 Y8.4542 I-1.032 J1.0238
G3 X10.4093 Y8.5616 I-1.09 J0.9618
G3 X10.5259 Y8.7509 I-1.1761 J0.8545
G3 X10.583 Y8.8785 I-1.1578 J0.5957
G3 X10.6064 Y8.9443 I-1.215 J0.4682
G3 X10.6549 Y9.1481 I-1.2383 J0.4024
G3 X10.6719 Y9.3698 I-1.4367 J0.2217
G1 X10.6719 Y9.3698
G1 X10.6719 Y9.3698
G3 X10.6549 Y9.5915 I-1.4537 J0
G3 X10.6064 Y9.7953 I-1.2868 J-0.1986
G3 X10.5259 Y9.9886 I-1.2383 J-0.4024
G3 X10.4093 Y10.178 I-1.2926 J-0.6651
G3 X10.2652 Y10.3474 I-1.1761 J-0.8545
G3 X10.1062 Y10.4837 I-0.9243 J-0.917
G3 X9.9274 Y10.5928 I-0.7653 J-1.0534
G3 X9.7218 Y10.6775 I-0.6548 J-1.2979
G1 Z-0.5 F30
G3 X9.5057 Y10.7298 I-0.4492 J-1.3825 F60
G3 X9.2969 Y10.7467 I-0.2088 J-1.2852
G3 X9.2292 Y10.7449 I0 J-1.302
G3 X9.0881 Y10.7298 I0.0677 J-1.3003
G3 X8.872 Y10.6775 I0.2331 J-1.4349
G3 X8.6664 Y10.5928 I0.4492 J-1.3825
G3 X8.4876 Y10.4837 I0.5865 J-1.1625
G3 X8.3286 Y10.3474 I0.7653 J-1.0534
G3 X8.1845 Y10.178 I1.032 J-1.0238
G3 X8.068 Y9.9886 I1.1761 J-0.8545
G3 X7.9874 Y9.7953 I1.1578 J-0.5957
G3 X7.9389 Y9.5915 I1.2383 J-0.4024
G3 X7.9219 Y9.3698 I1.4367 J-0.2217
G1 X7.9219 Y9.3698
G1 X7.9219 Y9.3698
G3 X7.9389 Y9.1481 I1.4537 J0
G3 X7.9798 Y8.9684 I1.2868 J0.1986
G3 X7.9874 Y8.9443 I1.2459 J0.3783
G3 X8.068 Y8.7509 I1.2383 J0.4024
G3 X8.1845 Y8.5616 I1.2926 J0.6651
G3 X8.21 Y8.5276 I1.1761 J0.8545
G3 X8.3286 Y8.3922 I1.1506 J0.8885
G3 X8.4876 Y8.2559 I0.9243 J0.917
G3 X8.6664 Y8.1468 I0.7653 J1.0534
G3 X8.872 Y8.0621 I0.6548 J1.2979
G3 X9.0881 Y8.0097 I0.4492 J1.3825
G3 X9.2969 Y7.9929 I0.2088 J1.2852
G3 X9.5057 Y8.0097 I0 J1.302
G3 X9.7218 Y8.0621 I-0.2331 J1.4349
G3 X9.9274 Y8.1468 I-0.4492 J1.3825
G3 X10.1062 Y8.2559 I-0.5865 J1.1625
G3 X10.2652 Y8.3922 I-0.7653 J1.0534
G3 X10.3233 Y8.4542 I-1.032 J1.0238
G3 X10.4093 Y8.5616 I-1.09 J0.9618
G3 X10.5259 Y8.7509 I-1.1761 J0.8545
G3 X10.583 Y8.8785 I-1.1578 J0.5957
G3 X10.6064 Y8.9443 I-1.215 J0.4682
G3 X10.6549 Y9.1481 I-1.2383 J0.4024
G3 X10.6719 Y9.3698 I-1.4367 J0.2217
G1 X10.6719 Y9.3698
G1 X10.6719 Y9.3698
G3 X10.6549 Y9.5915 I-1.4537 J0
G3 X10.6064 Y9.7953 I-1.2868 J-0.1986
G3 X10.5259 Y9.9886 I-1.2383 J-0.4024
G3 X10.4093 Y10.178 I-1.2926 J-0.6651
G3 X10.2652 Y10.3474 I-1.1761 J-0.8545
G3 X10.1062 Y10.4837 I-0.9243 J-0.917
G3 X9.9274 Y10.5928 I-0.7653 J-1.0534
G3 X9.7218 Y10.6775 I-0.6548 J-1.2979
G1 Z-0.6 F30
G1 Z-0.55 F30
G3 X9.5057 Y10.7298 I-0.4492 J-1.3825 F60
G3 X9.2969 Y10.7467 I-0.2088 J-1.2852
G3 X9.2292 Y10.7449 I0 J-1.302
G1 Z-0.6 F30
G3 X9.0881 Y10.7298 I0.0677 J-1.3003 F60
G3 X8.872 Y10.6775 I0.2331 J-1.4349
G3 X8.6664 Y10.5928 I0.4492 J-1.3825
G3 X8.4876 Y10.4837 I0.5865 J-1.1625
G3 X8.3286 Y10.3474 I0.7653 J-1.0534
G3 X8.1845 Y10.178 I1.032 J-1.0238
G3 X8.068 Y9.9886 I1.1761 J-0.8545
G3 X7.9874 Y9.7953 I1.1578 J-0.5957
G3 X7.9389 Y9.5915 I1.2383 J-0.4024
G3 X7.9219 Y9.3698 I1.4367 J-0.2217
G1 X7.9219 Y9.3698
G1 X7.9219 Y9.3698
G3 X7.9389 Y9.1481 I1.4537 J0
G3 X7.9798 Y8.9684 I1.2868 J0.1986
G1 Z-0.55 F30
G3 X7.9874 Y8.9443 I1.2459 J0.3783 F60
G3 X8.068 Y8.7509 I1.2383 J0.4024
G3 X8.1845 Y8.5616 I1.2926 J0.6651
G3 X8.21 Y8.5276 I1.1761 J0.8545
G1 Z-0.6 F30
G3 X8.3286 Y8.3922 I1.1506 J0.8885 F60
G3 X8.4876 Y8.2559 I0.9243 J0.917
G3 X8.6664 Y8.1468 I0.7653 J1.0534
G3 X8.872 Y8.0621 I0.6548 J1.2979
G3 X9.0881 Y8.0097 I0.4492 J1.3825
G3 X9.2969 Y7.9929 I0.2088 J1.2852
G3 X9.5057 Y8.0097 I0 J1.302
G3 X9.7218 Y8.0621 I-0.2331 J1.4349
G3 X9.9274 Y8.1468 I-0.4492 J1.3825
G3 X10.1062 Y8.2559 I-0.5865 J1.1625
G3 X10.2652 Y8.3922 I-0.7653 J1.0534
G3 X10.3233 Y8.4542 I-1.032 J1.0238
G1 Z-0.55 F30
G3 X10.4093 Y8.5616 I-1.09 J0.9618 F60
G3 X10.5259 Y8.7509 I-1.1761 J0.8545
G3 X10.583 Y8.8785 I-1.1578 J0.5957
G1 Z-0.6 F30
G3 X10.6064 Y8.9443 I-1.215 J0.4682 F60
G3 X10.6549 Y9.1481 I-1.2383 J0.4024
G3 X10.6719 Y9.3698 I-1.4367 J0.2217
G1 X10.6719 Y9.3698
G1 X10.6719 Y9.3698
G3 X10.6549 Y9.5915 I-1.4537 J0
G3 X10.6064 Y9.7953 I-1.2868 J-0.1986
G3 X10.5259 Y9.9886 I-1.2383 J-0.4024
G3 X10.4093 Y10.178 I-1.2926 J-0.6651
G3 X10.2652 Y10.3474 I-1.1761 J-0.8545
G3 X10.1062 Y10.4837 I-0.9243 J-0.917
G3 X9.9274 Y10.5928 I-0.7653 J-1.0534
G3 X9.7218 Y10.6775 I-0.6548 J-1.2979
G1 Z-0.7 F30
G1 Z-0.55 F30
G3 X9.5057 Y10.7298 I-0.4492 J-1.3825 F60
G3 X9.2969 Y10.7467 I-0.2088 J-1.2852
G3 X9.2292 Y10.7449 I0 J-1.302
G1 Z-0.7 F30
G3 X9.0881 Y10.7298 I0.0677 J-1.3003 F60
G3 X8.872 Y10.6775 I0.2331 J-1.4349
G3 X8.6664 Y10.5928 I0.4492 J-1.3825
G3 X8.4876 Y10.4837 I0.5865 J-1.1625
G3 X8.3286 Y10.3474 I0.7653 J-1.0534
G3 X8.1845 Y10.178 I1.032 J-1.0238
G3 X8.068 Y9.9886 I1.1761 J-0.8545
G3 X7.9874 Y9.7953 I1.1578 J-0.5957
G3 X7.9389 Y9.5915 I1.2383 J-0.4024
G3 X7.9219 Y9.3698 I1.4367 J-0.2217
G1 X7.9219 Y9.3698
G1 X7.9219 Y9.3698
G3 X7.9389 Y9.1481 I1.4537 J0
G3 X7.9798 Y8.9684 I1.2868 J0.1986
G1 Z-0.55 F30
G3 X7.9874 Y8.9443 I1.2459 J0.3783 F60
G3 X8.068 Y8.7509 I1.2383 J0.4024
G3 X8.1845 Y8.5616 I1.2926 J0.6651
G3 X8.21 Y8.5276 I1.1761 J0.8545
G1 Z-0.7 F30
G3 X8.3286 Y8.3922 I1.1506 J0.8885 F60
G3 X8.4876 Y8.2559 I0.9243 J0.917
G3 X8.6664 Y8.1468 I0.7653 J1.0534
G3 X8.872 Y8.0621 I0.6548 J1.2979
G3 X9.0881 Y8.0097 I0.4492 J1.3825
G3 X9.2969 Y7.9929 I0.2088 J1.2852
G3 X9.5057 Y8.0097 I0 J1.302
G3 X9.7218 Y8.0621 I-0.2331 J1.4349
G3 X9.9274 Y8.1468 I-0.4492 J1.3825
G3 X10.1062 Y8.2559 I-0.5865 J1.1625
G3 X10.2652 Y8.3922 I-0.7653 J1.0534
G3 X10.3233 Y8.4542 I-1.032 J1.0238
G1 Z-0.55 F30
G3 X10.4093 Y8.5616 I-1.09 J0.9618 F60
G3 X10.5259 Y8.7509 I-1.1761 J0.8545
G3 X10.583 Y8.8785 I-1.1578 J0.5957
G1 Z-0.7 F30
G3 X10.6064 Y8.9443 I-1.215 J0.4682 F60
G3 X10.6549 Y9.1481 I-1.2383 J0.4024
G3 X10.6719 Y9.3698 I-1.4367 J0.2217
G1 X10.6719 Y9.3698
G1 X10.6719 Y9.3698
G3 X10.6549 Y9.5915 I-1.4537 J0
G3 X10.6064 Y9.7953 I-1.2868 J-0.1986
G3 X10.5259 Y9.9886 I-1.2383 J-0.4024
G3 X10.4093 Y10.178 I-1.2926 J-0.6651
G3 X10.2652 Y10.3474 I-1.1761 J-0.8545
G3 X10.1062 Y10.4837 I-0.9243 J-0.917
G3 X9.9274 Y10.5928 I-0.7653 J-1.0534
G3 X9.7218 Y10.6775 I-0.6548 J-1.2979
G1 Z-0.8 F30
G1 Z-0.55 F30
G3 X9.5057 Y10.7298 I-0.4492 J-1.3825 F60
G3 X9.2969 Y10.7467 I-0.2088 J-1.2852
G3 X9.2292 Y10.7449 I0 J-1.302
G1 Z-0.8 F30
G3 X9.0881 Y10.7298 I0.0677 J-1.3003 F60
G3 X8.872 Y10.6775 I0.2331 J-1.4349
G3 X8.6664 Y10.5928 I0.4492 J-1.3825
G3 X8.4876 Y10.4837 I0.5865 J-1.1625
G3 X8.3286 Y10.3474 I0.7653 J-1.0534
G3 X8.1845 Y10.178 I1.032 J-1.0238
G3 X8.068 Y9.9886 I1.1761 J-0.8545
G3 X7.9874 Y9.7953 I1.1578 J-0.5957
G3 X7.9389 Y9.5915 I1.2383 J-0.4024
G3 X7.9219 Y9.3698 I1.4367 J-0.2217
G1 X7.9219 Y9.3698
G1 X7.9219 Y9.3698
G3 X7.9389 Y9.1481 I1.4537 J0
G3 X7.9798 Y8.9684 I1.2868 J0.1986
G1 Z-0.55 F30
G3 X7.9874 Y8.9443 I1.2459 J0.3783 F60
G3 X8.068 Y8.7509 I1.2383 J0.4024
G3 X8.1845 Y8.5616 I1.2926 J0.6651
G3 X8.21 Y8.5276 I1.1761 J0.8545
G1 Z-0.8 F30
G3 X8.3286 Y8.3922 I1.1506 J0.8885 F60
G3 X8.4876 Y8.2559 I0.9243 J0.917
G3 X8.6664 Y8.1468 I0.7653 J1.0534
G3 X8.872 Y8.0621 I0.6548 J1.2979
G3 X9.0881 Y8.0097 I0.4492 J1.3825
G3 X9.2969 Y7.9929 I0.2088 J1.2852
G3 X9.5057 Y8.0097 I0 J1.302
G3 X9.7218 Y8.0621 I-0.2331 J1.4349
G3 X9.9274 Y8.1468 I-0.4492 J1.3825
G3 X10.1062 Y8.2559 I-0.5865 J1.1625
G3 X10.2652 Y8.3922 I-0.7653 J1.0534
G3 X10.3233 Y8.4542 I-1.032 J1.0238
G1 Z-0.55 F30
G3 X10.4093 Y8.5616 I-1.09 J0.9618 F60
G3 X10.5259 Y8.7509 I-1.1761 J0.8545
G3 X10.583 Y8.8785 I-1.1578 J0.5957
G1 Z-0.8 F30
G3 X10.6064 Y8.9443 I-1.215 J0.4682 F60
G3 X10.6549 Y9.1481 I-1.2383 J0.4024
G3 X10.6719 Y9.3698 I-1.4367 J0.2217
G1 X10.6719 Y9.3698
G1 X10.6719 Y9.3698
G3 X10.6549 Y9.5915 I-1.4537 J0
G3 X10.6064 Y9.7953 I-1.2868 J-0.1986
G3 X10.5259 Y9.9886 I-1.2383 J-0.4024
G3 X10.4093 Y10.178 I-1.2926 J-0.6651
G3 X10.2652 Y10.3474 I-1.1761 J-0.8545
G3 X10.1062 Y10.4837 I-0.9243 J-0.917
G3 X9.9274 Y10.5928 I-0.7653 J-1.0534
G3 X9.7218 Y10.6775 I-0.6548 J-1.2979

(Outside Cut)
G0 Z0.15
G0 X18.4219 Y9.3698
G1 Z-0.12 F30
G3 X18.3789 Y10.3092 I-10.2818 J0 F60
G3 X18.2549 Y11.1889 I-9.1256 J-0.8372
G3 X18.0446 Y12.0522 I-8.6422 J-1.6484
G3 X17.7534 Y12.8726 I-8.0891 J-2.4096
G3 X17.3792 Y13.6586 I-7.7979 J-3.23
G3 X16.9175 Y14.4177 I-7.7383 J-4.1862
G3 X16.3831 Y15.1275 I-7.5792 J-5.151
G3 X15.7493 Y15.8221 I-7.9042 J-6.5757
G3 X15.0546 Y16.456 I-7.2704 J-7.2704
G3 X14.3449 Y16.9904 I-5.8607 J-7.0448
G3 X13.5857 Y17.4521 I-4.9453 J-7.2766
G3 X12.7997 Y17.8263 I-4.016 J-7.4237
G3 X11.9793 Y18.1175 I-3.23 J-7.7979
G3 X11.116 Y18.3278 I-2.5117 J-8.4319
G3 X10.2363 Y18.4518 I-1.717 J-9.0016
G3 X9.2969 Y18.4948 I-0.9394 J-10.2388
G3 X8.6546 Y18.4747 I0 J-10.2818
G3 X8.3575 Y18.4518 I0.6423 J-10.2617
G3 X8.1565 Y18.4311 I0.8372 J-9.1256
G3 X7.4778 Y18.3278 I1.0382 J-9.1049
G3 X6.6145 Y18.1175 I1.6484 J-8.6422
G3 X5.7941 Y17.8263 I2.4096 J-8.0891
G3 X5.0081 Y17.4521 I3.23 J-7.7979
G3 X4.2489 Y16.9904 I4.1862 J-7.7383
G3 X3.5392 Y16.456 I5.151 J-7.5792
G3 X2.8446 Y15.8221 I6.5757 J-7.9042
G3 X2.2107 Y15.1275 I7.2704 J-7.2704
G3 X1.6763 Y14.4177 I7.0448 J-5.8607
G3 X1.2146 Y13.6586 I7.2766 J-4.9453
G3 X0.8404 Y12.8726 I7.4237 J-4.016
G3 X0.5492 Y12.0522 I7.7979 J-3.23
G3 X0.3389 Y11.1889 I8.4319 J-2.5117
G3 X0.2149 Y10.3092 I9.0016 J-1.717
G3 X0.1719 Y9.3698 I10.2388 J-0.9394
G3 X0.2149 Y8.4304 I10.2818 J0
G3 X0.3389 Y7.5506 I9.1256 J0.8372
G3 X0.5492 Y6.6874 I8.6422 J1.6484
G3 X0.8404 Y5.867 I8.0891 J2.4096
G3 X1.2146 Y5.081 I7.7979 J3.23
G3 X1.6763 Y4.3218 I7.7383 J4.1862
G3 X1.7252 Y4.2506 I7.5792 J5.151
G3 X2.0212 Y3.8478 I7.5303 J5.2222
G3 X2.2107 Y3.6121 I7.2344 J5.6251
G3 X2.8446 Y2.9174 I7.9042 J6.5757
G3 X3.5392 Y2.2836 I7.2704 J7.2704
G3 X4.2489 Y1.7492 I5.8607 J7.0448
G3 X5.0081 Y1.2875 I4.9453 J7.2766
G3 X5.7941 Y0.9133 I4.016 J7.4237
G3 X6.6145 Y0.6221 I3.23 J7.7979
G3 X7.4778 Y0.4118 I2.5117 J8.4319
G3 X8.3575 Y0.2878 I1.717 J9.0016
G3 X9.2969 Y0.2448 I0.9394 J10.2388
G3 X10.2363 Y0.2878 I0 J10.2818
G3 X11.116 Y0.4118 I-0.8372 J9.1256
G3 X11.9793 Y0.6221 I-1.6484 J8.6422
G3 X12.7997 Y0.9133 I-2.4096 J8.0891
G3 X13.5857 Y1.2875 I-3.23 J7.7979
G3 X14.3449 Y1.7492 I-4.1862 J7.7383
G3 X15.0546 Y2.2836 I-5.151 J7.5792
G3 X15.7493 Y2.9174 I-6.5757 J7.9042
G3 X16.3831 Y3.6121 I-7.2704 J7.2704
G3 X16.9175 Y4.3218 I-7.0448 J5.8607
G3 X17.3792 Y5.081 I-7.2766 J4.9453
G3 X17.5195 Y5.3519 I-7.4237 J4.016
G3 X17.7279 Y5.8063 I-7.564 J3.7451
G3 X17.7534 Y5.867 I-7.7725 J3.2907
G3 X18.0446 Y6.6874 I-7.7979 J3.23
G3 X18.2549 Y7.5506 I-8.4319 J2.5117
G3 X18.3789 Y8.4304 I-9.0016 J1.717
G3 X18.4219 Y9.3698 I-10.2388 J0.9394
G1 Z-0.24 F30
G3 X18.3789 Y10.3092 I-10.2818 J0 F60
G3 X18.2549 Y11.1889 I-9.1256 J-0.8372
G3 X18.0446 Y12.0522 I-8.6422 J-1.6484
G3 X17.7534 Y12.8726 I-8.0891 J-2.4096
G3 X17.3792 Y13.6586 I-7.7979 J-3.23
G3 X16.9175 Y14.4177 I-7.7383 J-4.1862
G3 X16.3831 Y15.1275 I-7.5792 J-5.151
G3 X15.7493 Y15.8221 I-7.9042 J-6.5757
G3 X15.0546 Y16.456 I-7.2704 J-7.2704
G3 X14.3449 Y16.9904 I-5.8607 J-7.0448
G3 X13.5857 Y17.4521 I-4.9453 J-7.2766
G3 X12.7997 Y17.8263 I-4.016 J-7.4237
G3 X11.9793 Y18.1175 I-3.23 J-7.7979
G3 X11.116 Y18.3278 I-2.5117 J-8.4319
G3 X10.2363 Y18.4518 I-1.717 J-9.0016
G3 X9.2969 Y18.4948 I-0.9394 J-10.2388
G3 X8.6546 Y18.4747 I0 J-10.2818
G3 X8.3575 Y18.4518 I0.6423 J-10.2617
G3 X8.1565 Y18.4311 I0.8372 J-9.1256
G3 X7.4778 Y18.3278 I1.0382 J-9.1049
G3 X6.6145 Y18.1175 I1.6484 J-8.6422
G3 X5.7941 Y17.8263 I2.4096 J-8.0891
G3 X5.0081 Y17.4521 I3.23 J-7.7979
G3 X4.2489 Y16.9904 I4.1862 J-7.7383
G3 X3.5392 Y16.456 I5.151 J-7.5792
G3 X2.8446 Y15.8221 I6.5757 J-7.9042
G3 X2.2107 Y15.1275 I7.2704 J-7.2704
G3 X1.6763 Y14.4177 I7.0448 J-5.8607
G3 X1.2146 Y13.6586 I7.2766 J-4.9453
G3 X0.8404 Y12.8726 I7.4237 J-4.016
G3 X0.5492 Y12.0522 I7.7979 J-3.23
G3 X0.3389 Y11.1889 I8.4319 J-2.5117
G3 X0.2149 Y10.3092 I9.0016 J-1.717
G3 X0.1719 Y9.3698 I10.2388 J-0.9394
G3 X0.2149 Y8.4304 I10.2818 J0
G3 X0.3389 Y7.5506 I9.1256 J0.8372
G3 X0.5492 Y6.6874 I8.6422 J1.6484
G3 X0.8404 Y5.867 I8.0891 J2.4096
G3 X1.2146 Y5.081 I7.7979 J3.23
G3 X1.6763 Y4.3218 I7.7383 J4.1862
G3 X1.7252 Y4.2506 I7.5792 J5.151
G3 X2.0212 Y3.8478 I7.5303 J5.2222
G3 X2.2107 Y3.6121 I7.2344 J5.6251
G3 X2.8446 Y2.9174 I7.9042 J6.5757
G3 X3.5392 Y2.2836 I7.2704 J7.2704
G3 X4.2489 Y1.7492 I5.8607 J7.0448
G3 X5.0081 Y1.2875 I4.9453 J7.2766
G3 X5.7941 Y0.9133 I4.016 J7.4237
G3 X6.6145 Y0.6221 I3.23 J7.7979
G3 X7.4778 Y0.4118 I2.5117 J8.4319
G3 X8.3575 Y0.2878 I1.717 J9.0016
G3 X9.2969 Y0.2448 I0.9394 J10.2388
G3 X10.2363 Y0.2878 I0 J10.2818
G3 X11.116 Y0.4118 I-0.8372 J9.1256
G3 X11.9793 Y0.6221 I-1.6484 J8.6422
G3 X12.7997 Y0.9133 I-2.4096 J8.0891
G3 X13.5857 Y1.2875 I-3.23 J7.7979
G3 X14.3449 Y1.7492 I-4.1862 J7.7383
G3 X15.0546 Y2.2836 I-5.151 J7.5792
G3 X15.7493 Y2.9174 I-6.5757 J7.9042
G3 X16.3831 Y3.6121 I-7.2704 J7.2704
G3 X16.9175 Y4.3218 I-7.0448 J5.8607
G3 X17.3792 Y5.081 I-7.2766 J4.9453
G3 X17.5195 Y5.3519 I-7.4237 J4.016
G3 X17.7279 Y5.8063 I-7.564 J3.7451
G3 X17.7534 Y5.867 I-7.7725 J3.2907
G3 X18.0446 Y6.6874 I-7.7979 J3.23
G3 X18.2549 Y7.5506 I-8.4319 J2.5117
G3 X18.3789 Y8.4304 I-9.0016 J1.717
G3 X18.4219 Y9.3698 I-10.2388 J0.9394
G1 Z-0.36 F30
G3 X18.3789 Y10.3092 I-10.2818 J0 F60
G3 X18.2549 Y11.1889 I-9.1256 J-0.8372
G3 X18.0446 Y12.0522 I-8.6422 J-1.6484
G3 X17.7534 Y12.8726 I-8.0891 J-2.4096
G3 X17.3792 Y13.6586 I-7.7979 J-3.23
G3 X16.9175 Y14.4177 I-7.7383 J-4.1862
G3 X16.3831 Y15.1275 I-7.5792 J-5.151
G3 X15.7493 Y15.8221 I-7.9042 J-6.5757
G3 X15.0546 Y16.456 I-7.2704 J-7.2704
G3 X14.3449 Y16.9904 I-5.8607 J-7.0448
G3 X13.5857 Y17.4521 I-4.9453 J-7.2766
G3 X12.7997 Y17.8263 I-4.016 J-7.4237
G3 X11.9793 Y18.1175 I-3.23 J-7.7979
G3 X11.116 Y18.3278 I-2.5117 J-8.4319
G3 X10.2363 Y18.4518 I-1.717 J-9.0016
G3 X9.2969 Y18.4948 I-0.9394 J-10.2388
G3 X8.6546 Y18.4747 I0 J-10.2818
G3 X8.3575 Y18.4518 I0.6423 J-10.2617
G3 X8.1565 Y18.4311 I0.8372 J-9.1256
G3 X7.4778 Y18.3278 I1.0382 J-9.1049
G3 X6.6145 Y18.1175 I1.6484 J-8.6422
G3 X5.7941 Y17.8263 I2.4096 J-8.0891
G3 X5.0081 Y17.4521 I3.23 J-7.7979
G3 X4.2489 Y16.9904 I4.1862 J-7.7383
G3 X3.5392 Y16.456 I5.151 J-7.5792
G3 X2.8446 Y15.8221 I6.5757 J-7.9042
G3 X2.2107 Y15.1275 I7.2704 J-7.2704
G3 X1.6763 Y14.4177 I7.0448 J-5.8607
G3 X1.2146 Y13.6586 I7.2766 J-4.9453
G3 X0.8404 Y12.8726 I7.4237 J-4.016
G3 X0.5492 Y12.0522 I7.7979 J-3.23
G3 X0.3389 Y11.1889 I8.4319 J-2.5117
G3 X0.2149 Y10.3092 I9.0016 J-1.717
G3 X0.1719 Y9.3698 I10.2388 J-0.9394
G3 X0.2149 Y8.4304 I10.2818 J0
G3 X0.3389 Y7.5506 I9.1256 J0.8372
G3 X0.5492 Y6.6874 I8.6422 J1.6484
G3 X0.8404 Y5.867 I8.0891 J2.4096
G3 X1.2146 Y5.081 I7.7979 J3.23
G3 X1.6763 Y4.3218 I7.7383 J4.1862
G3 X1.7252 Y4.2506 I7.5792 J5.151
G3 X2.0212 Y3.8478 I7.5303 J5.2222
G3 X2.2107 Y3.6121 I7.2344 J5.6251
G3 X2.8446 Y2.9174 I7.9042 J6.5757
G3 X3.5392 Y2.2836 I7.2704 J7.2704
G3 X4.2489 Y1.7492 I5.8607 J7.0448
G3 X5.0081 Y1.2875 I4.9453 J7.2766
G3 X5.7941 Y0.9133 I4.016 J7.4237
G3 X6.6145 Y0.6221 I3.23 J7.7979
G3 X7.4778 Y0.4118 I2.5117 J8.4319
G3 X8.3575 Y0.2878 I1.717 J9.0016
G3 X9.2969 Y0.2448 I0.9394 J10.2388
G3 X10.2363 Y0.2878 I0 J10.2818
G3 X11.116 Y0.4118 I-0.8372 J9.1256
G3 X11.9793 Y0.6221 I-1.6484 J8.6422
G3 X12.7997 Y0.9133 I-2.4096 J8.0891
G3 X13.5857 Y1.2875 I-3.23 J7.7979
G3 X14.3449 Y1.7492 I-4.1862 J7.7383
G3 X15.0546 Y2.2836 I-5.151 J7.5792
G3 X15.7493 Y2.9174 I-6.5757 J7.9042
G3 X16.3831 Y3.6121 I-7.2704 J7.2704
G3 X16.9175 Y4.3218 I-7.0448 J5.8607
G3 X17.3792 Y5.081 I-7.2766 J4.9453
G3 X17.5195 Y5.3519 I-7.4237 J4.016
G3 X17.7279 Y5.8063 I-7.564 J3.7451
G3 X17.7534 Y5.867 I-7.7725 J3.2907
G3 X18.0446 Y6.6874 I-7.7979 J3.23
G3 X18.2549 Y7.5506 I-8.4319 J2.5117
G3 X18.3789 Y8.4304 I-9.0016 J1.717
G3 X18.4219 Y9.3698 I-10.2388 J0.9394
G1 Z-0.48 F30
G3 X18.3789 Y10.3092 I-10.2818 J0 F60
G3 X18.2549 Y11.1889 I-9.1256 J-0.8372
G3 X18.0446 Y12.0522 I-8.6422 J-1.6484
G3 X17.7534 Y12.8726 I-8.0891 J-2.4096
G3 X17.3792 Y13.6586 I-7.7979 J-3.23
G3 X16.9175 Y14.4177 I-7.7383 J-4.1862
G3 X16.3831 Y15.1275 I-7.5792 J-5.151
G3 X15.7493 Y15.8221 I-7.9042 J-6.5757
G3 X15.0546 Y16.456 I-7.2704 J-7.2704
G3 X14.3449 Y16.9904 I-5.8607 J-7.0448
G3 X13.5857 Y17.4521 I-4.9453 J-7.2766
G3 X12.7997 Y17.8263 I-4.016 J-7.4237
G3 X11.9793 Y18.1175 I-3.23 J-7.7979
G3 X11.116 Y18.3278 I-2.5117 J-8.4319
G3 X10.2363 Y18.4518 I-1.717 J-9.0016
G3 X9.2969 Y18.4948 I-0.9394 J-10.2388
G3 X8.6546 Y18.4747 I0 J-10.2818
G3 X8.3575 Y18.4518 I0.6423 J-10.2617
G3 X8.1565 Y18.4311 I0.8372 J-9.1256
G3 X7.4778 Y18.3278 I1.0382 J-9.1049
G3 X6.6145 Y18.1175 I1.6484 J-8.6422
G3 X5.7941 Y17.8263 I2.4096 J-8.0891
G3 X5.0081 Y17.4521 I3.23 J-7.7979
G3 X4.2489 Y16.9904 I4.1862 J-7.7383
G3 X3.5392 Y16.456 I5.151 J-7.5792
G3 X2.8446 Y15.8221 I6.5757 J-7.9042
G3 X2.2107 Y15.1275 I7.2704 J-7.2704
G3 X1.6763 Y14.4177 I7.0448 J-5.8607
G3 X1.2146 Y13.6586 I7.2766 J-4.9453
G3 X0.8404 Y12.8726 I7.4237 J-4.016
G3 X0.5492 Y12.0522 I7.7979 J-3.23
G3 X0.3389 Y11.1889 I8.4319 J-2.5117
G3 X0.2149 Y10.3092 I9.0016 J-1.717
G3 X0.1719 Y9.3698 I10.2388 J-0.9394
G3 X0.2149 Y8.4304 I10.2818 J0
G3 X0.3389 Y7.5506 I9.1256 J0.8372
G3 X0.5492 Y6.6874 I8.6422 J1.6484
G3 X0.8404 Y5.867 I8.0891 J2.4096
G3 X1.2146 Y5.081 I7.7979 J3.23
G3 X1.6763 Y4.3218 I7.7383 J4.1862
G3 X1.7252 Y4.2506 I7.5792 J5.151
G3 X2.0212 Y3.8478 I7.5303 J5.2222
G3 X2.2107 Y3.6121 I7.2344 J5.6251
G3 X2.8446 Y2.9174 I7.9042 J6.5757
G3 X3.5392 Y2.2836 I7.2704 J7.2704
G3 X4.2489 Y1.7492 I5.8607 J7.0448
G3 X5.0081 Y1.2875 I4.9453 J7.2766
G3 X5.7941 Y0.9133 I4.016 J7.4237
G3 X6.6145 Y0.6221 I3.23 J7.7979
G3 X7.4778 Y0.4118 I2.5117 J8.4319
G3 X8.3575 Y0.2878 I1.717 J9.0016
G3 X9.2969 Y0.2448 I0.9394 J10.2388
G3 X10.2363 Y0.2878 I0 J10.2818
G3 X11.116 Y0.4118 I-0.8372 J9.1256
G3 X11.9793 Y0.6221 I-1.6484 J8.6422
G3 X12.7997 Y0.9133 I-2.4096 J8.0891
G3 X13.5857 Y1.2875 I-3.23 J7.7979
G3 X14.3449 Y1.7492 I-4.1862 J7.7383
G3 X15.0546 Y2.2836 I-5.151 J7.5792
G3 X15.7493 Y2.9174 I-6.5757 J7.9042
G3 X16.3831 Y3.6121 I-7.2704 J7.2704
G3 X16.9175 Y4.3218 I-7.0448 J5.8607
G3 X17.3792 Y5.081 I-7.2766 J4.9453
G3 X17.5195 Y5.3519 I-7.4237 J4.016
G3 X17.7279 Y5.8063 I-7.564 J3.7451
G3 X17.7534 Y5.867 I-7.7725 J3.2907
G3 X18.0446 Y6.6874 I-7.7979 J3.23
G3 X18.2549 Y7.5506 I-8.4319 J2.5117
G3 X18.3789 Y8.4304 I-9.0016 J1.717
G3 X18.4219 Y9.3698 I-10.2388 J0.9394
G1 Z-0.6 F30
G3 X18.3789 Y10.3092 I-10.2818 J0 F60
G3 X18.2549 Y11.1889 I-9.1256 J-0.8372
G3 X18.0446 Y12.0522 I-8.6422 J-1.6484
G3 X17.7534 Y12.8726 I-8.0891 J-2.4096
G3 X17.3792 Y13.6586 I-7.7979 J-3.23
G3 X16.9175 Y14.4177 I-7.7383 J-4.1862
G3 X16.3831 Y15.1275 I-7.5792 J-5.151
G3 X15.7493 Y15.8221 I-7.9042 J-6.5757
G3 X15.0546 Y16.456 I-7.2704 J-7.2704
G3 X14.3449 Y16.9904 I-5.8607 J-7.0448
G3 X13.5857 Y17.4521 I-4.9453 J-7.2766
G3 X12.7997 Y17.8263 I-4.016 J-7.4237
G3 X11.9793 Y18.1175 I-3.23 J-7.7979
G3 X11.116 Y18.3278 I-2.5117 J-8.4319
G3 X10.2363 Y18.4518 I-1.717 J-9.0016
G3 X9.2969 Y18.4948 I-0.9394 J-10.2388
G3 X8.6546 Y18.4747 I0 J-10.2818
G1 Z-0.55 F30
G3 X8.3575 Y18.4518 I0.6423 J-10.2617 F60
G3 X8.1565 Y18.4311 I0.8372 J-9.1256
G1 Z-0.6 F30
G3 X7.4778 Y18.3278 I1.0382 J-9.1049 F60
G3 X6.6145 Y18.1175 I1.6484 J-8.6422
G3 X5.7941 Y17.8263 I2.4096 J-8.0891
G3 X5.0081 Y17.4521 I3.23 J-7.7979
G3 X4.2489 Y16.9904 I4.1862 J-7.7383
G3 X3.5392 Y16.456 I5.151 J-7.5792
G3 X2.8446 Y15.8221 I6.5757 J-7.9042
G3 X2.2107 Y15.1275 I7.2704 J-7.2704
G3 X1.6763 Y14.4177 I7.0448 J-5.8607
G3 X1.2146 Y13.6586 I7.2766 J-4.9453
G3 X0.8404 Y12.8726 I7.4237 J-4.016
G3 X0.5492 Y12.0522 I7.7979 J-3.23
G3 X0.3389 Y11.1889 I8.4319 J-2.5117
G3 X0.2149 Y10.3092 I9.0016 J-1.717
G3 X0.1719 Y9.3698 I10.2388 J-0.9394
G3 X0.2149 Y8.4304 I10.2818 J0
G3 X0.3389 Y7.5506 I9.1256 J0.8372
G3 X0.5492 Y6.6874 I8.6422 J1.6484
G3 X0.8404 Y5.867 I8.0891 J2.4096
G3 X1.2146 Y5.081 I7.7979 J3.23
G3 X1.6763 Y4.3218 I7.7383 J4.1862
G3 X1.7252 Y4.2506 I7.5792 J5.151
G1 Z-0.55 F30
G3 X2.0212 Y3.8478 I7.5303 J5.2222 F60
G1 Z-0.6 F30
G3 X2.2107 Y3.6121 I7.2344 J5.6251 F60
G3 X2.8446 Y2.9174 I7.9042 J6.5757
G3 X3.5392 Y2.2836 I7.2704 J7.2704
G3 X4.2489 Y1.7492 I5.8607 J7.0448
G3 X5.0081 Y1.2875 I4.9453 J7.2766
G3 X5.7941 Y0.9133 I4.016 J7.4237
G3 X6.6145 Y0.6221 I3.23 J7.7979
G3 X7.4778 Y0.4118 I2.5117 J8.4319
G3 X8.3575 Y0.2878 I1.717 J9.0016
G3 X9.2969 Y0.2448 I0.9394 J10.2388
G3 X10.2363 Y0.2878 I0 J10.2818
G3 X11.116 Y0.4118 I-0.8372 J9.1256
G3 X11.9793 Y0.6221 I-1.6484 J8.6422
G3 X12.7997 Y0.9133 I-2.4096 J8.0891
G3 X13.5857 Y1.2875 I-3.23 J7.7979
G3 X14.3449 Y1.7492 I-4.1862 J7.7383
G3 X15.0546 Y2.2836 I-5.151 J7.5792
G3 X15.7493 Y2.9174 I-6.5757 J7.9042
G3 X16.3831 Y3.6121 I-7.2704 J7.2704
G3 X16.9175 Y4.3218 I-7.0448 J5.8607
G3 X17.3792 Y5.081 I-7.2766 J4.9453
G3 X17.5195 Y5.3519 I-7.4237 J4.016
G1 Z-0.55 F30
G3 X17.7279 Y5.8063 I-7.564 J3.7451 F60
G1 Z-0.6 F30
G3 X17.7534 Y5.867 I-7.7725 J3.2907 F60
G3 X18.0446 Y6.6874 I-7.7979 J3.23
G3 X18.2549 Y7.5506 I-8.4319 J2.5117
G3 X18.3789 Y8.4304 I-9.0016 J1.717
G3 X18.4219 Y9.3698 I-10.2388 J0.9394
G1 Z-0.72 F30
G3 X18.3789 Y10.3092 I-10.2818 J0 F60
G3 X18.2549 Y11.1889 I-9.1256 J-0.8372
G3 X18.0446 Y12.0522 I-8.6422 J-1.6484
G3 X17.7534 Y12.8726 I-8.0891 J-2.4096
G3 X17.3792 Y13.6586 I-7.7979 J-3.23
G3 X16.9175 Y14.4177 I-7.7383 J-4.1862
G3 X16.3831 Y15.1275 I-7.5792 J-5.151
G3 X15.7493 Y15.8221 I-7.9042 J-6.5757
G3 X15.0546 Y16.456 I-7.2704 J-7.2704
G3 X14.3449 Y16.9904 I-5.8607 J-7.0448
G3 X13.5857 Y17.4521 I-4.9453 J-7.2766
G3 X12.7997 Y17.8263 I-4.016 J-7.4237
G3 X11.9793 Y18.1175 I-3.23 J-7.7979
G3 X11.116 Y18.3278 I-2.5117 J-8.4319
G3 X10.2363 Y18.4518 I-1.717 J-9.0016
G3 X9.2969 Y18.4948 I-0.9394 J-10.2388
G3 X8.6546 Y18.4747 I0 J-10.2818
G1 Z-0.55 F30
G3 X8.3575 Y18.4518 I0.6423 J-10.2617 F60
G3 X8.1565 Y18.4311 I0.8372 J-9.1256
G1 Z-0.72 F30
G3 X7.4778 Y18.3278 I1.0382 J-9.1049 F60
G3 X6.6145 Y18.1175 I1.6484 J-8.6422
G3 X5.7941 Y17.8263 I2.4096 J-8.0891
G3 X5.0081 Y17.4521 I3.23 J-7.7979
G3 X4.2489 Y16.9904 I4.1862 J-7.7383
G3 X3.5392 Y16.456 I5.151 J-7.5792
G3 X2.8446 Y15.8221 I6.5757 J-7.9042
G3 X2.2107 Y15.1275 I7.2704 J-7.2704
G3 X1.6763 Y14.4177 I7.0448 J-5.8607
G3 X1.2146 Y13.6586 I7.2766 J-4.9453
G3 X0.8404 Y12.8726 I7.4237 J-4.016
G3 X0.5492 Y12.0522 I7.7979 J-3.23
G3 X0.3389 Y11.1889 I8.4319 J-2.5117
G3 X0.2149 Y10.3092 I9.0016 J-1.717
G3 X0.1719 Y9.3698 I10.2388 J-0.9394
G3 X0.2149 Y8.4304 I10.2818 J0
G3 X0.3389 Y7.5506 I9.1256 J0.8372
G3 X0.5492 Y6.6874 I8.6422 J1.6484
G3 X0.8404 Y5.867 I8.0891 J2.4096
G3 X1.2146 Y5.081 I7.7979 J3.23
G3 X1.6763 Y4.3218 I7.7383 J4.1862
G3 X1.7252 Y4.2506 I7.5792 J5.151
G1 Z-0.55 F30
G3 X2.0212 Y3.8478 I7.5303 J5.2222 F60
G1 Z-0.72 F30
G3 X2.2107 Y3.6121 I7.2344 J5.6251 F60
G3 X2.8446 Y2.9174 I7.9042 J6.5757
G3 X3.5392 Y2.2836 I7.2704 J7.2704
G3 X4.2489 Y1.7492 I5.8607 J7.0448
G3 X5.0081 Y1.2875 I4.9453 J7.2766
G3 X5.7941 Y0.9133 I4.016 J7.4237
G3 X6.6145 Y0.6221 I3.23 J7.7979
G3 X7.4778 Y0.4118 I2.5117 J8.4319
G3 X8.3575 Y0.2878 I1.717 J9.0016
G3 X9.2969 Y0.2448 I0.9394 J10.2388
G3 X10.2363 Y0.2878 I0 J10.2818
G3 X11.116 Y0.4118 I-0.8372 J9.1256
G3 X11.9793 Y0.6221 I-1.6484 J8.6422
G3 X12.7997 Y0.9133 I-2.4096 J8.0891
G3 X13.5857 Y1.2875 I-3.23 J7.7979
G3 X14.3449 Y1.7492 I-4.1862 J7.7383
G3 X15.0546 Y2.2836 I-5.151 J7.5792
G3 X15.7493 Y2.9174 I-6.5757 J7.9042
G3 X16.3831 Y3.6121 I-7.2704 J7.2704
G3 X16.9175 Y4.3218 I-7.0448 J5.8607
G3 X17.3792 Y5.081 I-7.2766 J4.9453
G3 X17.5195 Y5.3519 I-7.4237 J4.016
G1 Z-0.55 F30
G3 X17.7279 Y5.8063 I-7.564 J3.7451 F60
G1 Z-0.72 F30
G3 X17.7534 Y5.867 I-7.7725 J3.2907 F60
G3 X18.0446 Y6.6874 I-7.7979 J3.23
G3 X18.2549 Y7.5506 I-8.4319 J2.5117
G3 X18.3789 Y8.4304 I-9.0016 J1.717
G3 X18.4219 Y9.3698 I-10.2388 J0.9394
G1 Z-0.8 F30
G3 X18.3789 Y10.3092 I-10.2818 J0 F60
G3 X18.2549 Y11.1889 I-9.1256 J-0.8372
G3 X18.0446 Y12.0522 I-8.6422 J-1.6484
G3 X17.7534 Y12.8726 I-8.0891 J-2.4096
G3 X17.3792 Y13.6586 I-7.7979 J-3.23
G3 X16.9175 Y14.4177 I-7.7383 J-4.1862
G3 X16.3831 Y15.1275 I-7.5792 J-5.151
G3 X15.7493 Y15.8221 I-7.9042 J-6.5757
G3 X15.0546 Y16.456 I-7.2704 J-7.2704
G3 X14.3449 Y16.9904 I-5.8607 J-7.0448
G3 X13.5857 Y17.4521 I-4.9453 J-7.2766
G3 X12.7997 Y17.8263 I-4.016 J-7.4237
G3 X11.9793 Y18.1175 I-3.23 J-7.7979
G3 X11.116 Y18.3278 I-2.5117 J-8.4319
G3 X10.2363 Y18.4518 I-1.717 J-9.0016
G3 X9.2969 Y18.4948 I-0.9394 J-10.2388
G3 X8.6546 Y18.4747 I0 J-10.2818
G1 Z-0.55 F30
G3 X8.3575 Y18.4518 I0.6423 J-10.2617 F60
G3 X8.1565 Y18.4311 I0.8372 J-9.1256
G1 Z-0.8 F30
G3 X7.4778 Y18.3278 I1.0382 J-9.1049 F60
G3 X6.6145 Y18.1175 I1.6484 J-8.6422
G3 X5.7941 Y17.8263 I2.4096 J-8.0891
G3 X5.0081 Y17.4521 I3.23 J-7.7979
G3 X4.2489 Y16.9904 I4.1862 J-7.7383
G3 X3.5392 Y16.456 I5.151 J-7.5792
G3 X2.8446 Y15.8221 I6.5757 J-7.9042
G3 X2.2107 Y15.1275 I7.2704 J-7.2704
G3 X1.6763 Y14.4177 I7.0448 J-5.8607
G3 X1.2146 Y13.6586 I7.2766 J-4.9453
G3 X0.8404 Y12.8726 I7.4237 J-4.016
G3 X0.5492 Y12.0522 I7.7979 J-3.23
G3 X0.3389 Y11.1889 I8.4319 J-2.5117
G3 X0.2149 Y10.3092 I9.0016 J-1.717
G3 X0.1719 Y9.3698 I10.2388 J-0.9394
G3 X0.2149 Y8.4304 I10.2818 J0
G3 X0.3389 Y7.5506 I9.1256 J0.8372
G3 X0.5492 Y6.6874 I8.6422 J1.6484
G3 X0.8404 Y5.867 I8.0891 J2.4096
G3 X1.2146 Y5.081 I7.7979 J3.23
G3 X1.6763 Y4.3218 I7.7383 J4.1862
G3 X1.7252 Y4.2506 I7.5792 J5.151
G1 Z-0.55 F30
G3 X2.0212 Y3.8478 I7.5303 J5.2222 F60
G1 Z-0.8 F30
G3 X2.2107 Y3.6121 I7.2344 J5.6251 F60
G3 X2.8446 Y2.9174 I7.9042 J6.5757
G3 X3.5392 Y2.2836 I7.2704 J7.2704
G3 X4.2489 Y1.7492 I5.8607 J7.0448
G3 X5.0081 Y1.2875 I4.9453 J7.2766
G3 X5.7941 Y0.9133 I4.016 J7.4237
G3 X6.6145 Y0.6221 I3.23 J7.7979
G3 X7.4778 Y0.4118 I2.5117 J8.4319
G3 X8.3575 Y0.2878 I1.717 J9.0016
G3 X9.2969 Y0.2448 I0.9394 J10.2388
G3 X10.2363 Y0.2878 I0 J10.2818
G3 X11.116 Y0.4118 I-0.8372 J9.1256
G3 X11.9793 Y0.6221 I-1.6484 J8.6422
G3 X12.7997 Y0.9133 I-2.4096 J8.0891
G3 X13.5857 Y1.2875 I-3.23 J7.7979
G3 X14.3449 Y1.7492 I-4.1862 J7.7383
G3 X15.0546 Y2.2836 I-5.151 J7.5792
G3 X15.7493 Y2.9174 I-6.5757 J7.9042
G3 X16.3831 Y3.6121 I-7.2704 J7.2704
G3 X16.9175 Y4.3218 I-7.0448 J5.8607
G3 X17.3792 Y5.081 I-7.2766 J4.9453
G3 X17.5195 Y5.3519 I-7.4237 J4.016
G1 Z-0.55 F30
G3 X17.7279 Y5.8063 I-7.564 J3.7451 F60
G1 Z-0.8 F30
G3 X17.7534 Y5.867 I-7.7725 J3.2907 F60
G3 X18.0446 Y6.6874 I-7.7979 J3.23
G3 X18.2549 Y7.5506 I-8.4319 J2.5117
G3 X18.3789 Y8.4304 I-9.0016 J1.717
G3 X18.4219 Y9.3698 I-10.2388 J0.9394
G0 Z0.15
M5
M30
